; generated by Slic3r 1.2.9 on 2017-09-19 at 10:39:41

; external perimeters extrusion width = 0.50mm
; perimeters extrusion width = 0.72mm
; infill extrusion width = 0.72mm
; solid infill extrusion width = 0.72mm
; top infill extrusion width = 0.72mm

M107
M104 S200 ; set temperature
G28 ; home all axes
G1 Z5 F5000 ; lift nozzle

M109 S200 ; wait for temperature to be reached
G21 ; set units to millimeters
G90 ; use absolute coordinates
M82 ; use absolute distances for extrusion
G92 E0
G1 Z0.350 F7800.000
G1 E-2.00000 F2400.00000
G92 E0
G1 X83.533 Y82.436 F7800.000
G1 E2.00000 F2400.00000
G1 X84.958 Y81.201 E2.17146 F1800.000
G1 X89.149 Y78.508 E2.62438
G1 X90.864 Y77.725 E2.79584
G1 X95.643 Y76.322 E3.24876
G1 X96.659 Y76.108 E3.34317
G1 X97.090 Y76.065 E3.38255
G1 X97.544 Y76.048 E3.42383
G1 X102.468 Y76.050 E3.87156
G1 X103.266 Y76.099 E3.94432 F1800.000
G1 X104.357 Y76.322 E4.04554
G1 X109.136 Y77.725 E4.49846
G1 X110.851 Y78.508 E4.66992
G1 X115.042 Y81.201 E5.12285
G1 X116.467 Y82.436 E5.29431
G1 X119.729 Y86.200 E5.74723
G1 X120.748 Y87.787 E5.91869
G1 X122.817 Y92.318 E6.37161
G1 X123.349 Y94.127 E6.54307
G1 X124.057 Y99.057 E6.99599
G1 X124.068 Y100.865 E7.16036
G1 X124.051 Y100.989 E7.17174
G1 X123.348 Y105.874 E7.62051
G1 X122.817 Y107.682 E7.79191
G1 X120.748 Y112.213 E8.24483
G1 X119.729 Y113.800 E8.41629
G1 X116.467 Y117.564 E8.86921
G1 X115.042 Y118.799 E9.04067
G1 X110.851 Y121.492 E9.49359
G1 X109.136 Y122.275 E9.66506
G1 X104.357 Y123.678 E10.11798
G1 X103.340 Y123.892 E10.21245
G1 X102.873 Y123.937 E10.25515
G1 X102.421 Y123.953 E10.29629
G1 X97.530 Y123.950 E10.74102
G1 X96.721 Y123.900 E10.81470
G1 X95.643 Y123.678 E10.91475
G1 X90.864 Y122.275 E11.36768
G1 X89.149 Y121.492 E11.53914
G1 X84.958 Y118.799 E11.99206
G1 X83.533 Y117.564 E12.16352
G1 X80.271 Y113.800 E12.61644
G1 X79.252 Y112.213 E12.78790
G1 X77.183 Y107.682 E13.24082
G1 X76.651 Y105.873 E13.41229
G1 X75.943 Y100.943 E13.86521
G1 X75.932 Y99.135 E14.02957
G1 X76.652 Y94.126 E14.48973
G1 X77.183 Y92.318 E14.66112
G1 X79.252 Y87.787 E15.11404
G1 X80.271 Y86.200 E15.28550
G1 X83.484 Y82.493 E15.73161
G1 E13.73161 F2400.00000
G92 E0
G1 X110.402 Y112.004 F7800.000
G1 E2.00000 F2400.00000
G1 X106.598 Y114.448 E2.41109 F1800.000
G1 X102.260 Y115.722 E2.82218
G1 X97.740 Y115.722 E3.23328
G1 X93.402 Y114.448 E3.64437
G1 X89.598 Y112.004 E4.05546
G1 X86.638 Y108.587 E4.46655
G1 X84.760 Y104.475 E4.87764
G1 X84.116 Y100.000 E5.28874
G1 X84.760 Y95.525 E5.69983
G1 X86.638 Y91.413 E6.11092
G1 X89.598 Y87.996 E6.52201
G1 X93.402 Y85.552 E6.93310
G1 X97.750 Y84.275 E7.34518
G1 X102.260 Y84.278 E7.75528
G1 X106.598 Y85.552 E8.16642 F1800.000
G1 X110.402 Y87.996 E8.57751
G1 X113.362 Y91.413 E8.98861
G1 X115.240 Y95.525 E9.39970
G1 X115.884 Y100.000 E9.81079
G1 X115.240 Y104.475 E10.22188
G1 X113.362 Y108.587 E10.63297
G1 X110.451 Y111.947 E11.03725
G1 X110.874 Y112.413 F7800.000
G1 X110.815 Y112.481 E11.04542 F1800.000
G1 X106.861 Y115.023 E11.47285
G1 X102.350 Y116.347 E11.90028
G1 X97.650 Y116.347 E12.32771
G1 X93.139 Y115.023 E12.75514
G1 X89.185 Y112.481 E13.18257
G1 X86.107 Y108.929 E13.61000
G1 X84.154 Y104.653 E14.03743
G1 X83.485 Y100.000 E14.46486
G1 X84.154 Y95.347 E14.89230
G1 X86.107 Y91.071 E15.31973
G1 X89.185 Y87.519 E15.74716
G1 X93.139 Y84.977 E16.17459
G1 X97.660 Y83.650 E16.60303
G1 X102.350 Y83.653 E17.02946
G1 X106.861 Y84.977 E17.45692 F1800.000
G1 X110.815 Y87.519 E17.88436
G1 X113.893 Y91.071 E18.31179
G1 X115.846 Y95.347 E18.73922
G1 X116.515 Y100.000 E19.16665
G1 X115.846 Y104.653 E19.59408
G1 X113.893 Y108.929 E20.02151
G1 X110.923 Y112.357 E20.43395
G1 X111.346 Y112.823 F7800.000
G1 X111.229 Y112.958 E20.45029 F1800.000
G1 X107.123 Y115.597 E20.89406
G1 X102.440 Y116.972 E21.33783
G1 X97.560 Y116.972 E21.78160
G1 X92.877 Y115.597 E22.22537
G1 X88.771 Y112.958 E22.66914
G1 X85.576 Y109.270 E23.11292
G1 X83.548 Y104.831 E23.55669
G1 X82.854 Y100.000 E24.00046
G1 X83.548 Y95.169 E24.44423
G1 X85.576 Y90.730 E24.88800
G1 X88.771 Y87.042 E25.33177
G1 X92.877 Y84.403 E25.77554
G1 X97.564 Y83.027 E26.21972
G1 X102.440 Y83.028 E26.66309
G1 X107.123 Y84.403 E27.10687 F1800.000
G1 X111.229 Y87.042 E27.55064
G1 X114.424 Y90.730 E27.99441
G1 X116.452 Y95.169 E28.43818
G1 X117.146 Y100.000 E28.88195
G1 X116.452 Y104.831 E29.32572
G1 X114.424 Y109.270 E29.76949
G1 X111.395 Y112.766 E30.19010
G1 X111.170 Y112.789 F7800.000
G1 X114.230 Y94.385 F7800.000
G1 X105.518 Y85.674 E31.33355 F1800.000
G1 X104.241 Y85.299 E31.45708
G1 X114.900 Y95.957 E32.85605
G1 X115.051 Y97.010 E32.95484
G1 X102.964 Y84.924 E34.54131
G1 X101.795 Y84.656 E34.65266
G1 X115.202 Y98.064 E36.41253
G1 X115.354 Y99.117 E36.51132
G1 X100.892 Y84.656 E38.40955
G1 X99.990 Y84.655 E38.49332
G1 X115.496 Y100.161 E40.52864
G1 X115.382 Y100.950 E40.60259
G1 X99.087 Y84.654 E42.74151
G1 X98.184 Y84.654 E42.82528
G1 X115.269 Y101.738 E45.06779
G1 X115.156 Y102.527 E45.14174
G1 X97.375 Y84.746 E47.47563
G1 X96.677 Y84.951 E47.54308
G1 X115.042 Y103.316 E49.95361
G1 X114.929 Y104.104 E50.02756
G1 X95.980 Y85.156 E52.51474
G1 X95.283 Y85.360 E52.58219
G1 X114.723 Y104.800 E55.13385
G1 X114.440 Y105.420 E55.19703
G1 X94.586 Y85.565 E57.80310
G1 X93.888 Y85.770 E57.87055
G1 X114.157 Y106.039 E60.53103
G1 X113.874 Y106.658 E60.59421
G1 X93.253 Y86.037 E63.30093
G1 X92.704 Y86.390 E63.36152
G1 X113.592 Y107.277 E66.10319
G1 X113.309 Y107.897 E66.16638
G1 X92.155 Y86.743 E68.94301
G1 X91.606 Y87.096 E69.00360
G1 X113.010 Y108.499 E71.81303
G1 X112.591 Y108.983 E71.87238
G1 X91.057 Y87.448 E74.69892
G1 X90.507 Y87.801 E74.75951
G1 X112.172 Y109.466 E77.60316
G1 X111.753 Y109.949 E77.66251
G1 X89.958 Y88.154 E80.52328
G1 X89.503 Y88.601 E80.58248
G1 X111.335 Y110.433 E83.44806
G1 X110.916 Y110.916 E83.50741
G1 X89.084 Y89.084 E86.37299
G1 X88.665 Y89.567 E86.43234
G1 X110.497 Y111.399 E89.29792
G1 X110.042 Y111.846 E89.35712
G1 X88.247 Y90.051 E92.21789
G1 X87.828 Y90.534 E92.27724
G1 X109.492 Y112.199 E95.12089
G1 X108.943 Y112.552 E95.18148
G1 X87.409 Y91.017 E98.00802
G1 X86.990 Y91.501 E98.06737
G1 X108.394 Y112.904 E100.87680
G1 X107.845 Y113.257 E100.93738
G1 X86.691 Y92.103 E103.71402
G1 X86.408 Y92.723 E103.77720
G1 X107.296 Y113.610 E106.51888
G1 X106.747 Y113.963 E106.57946
G1 X86.125 Y93.342 E109.28618
G1 X85.843 Y93.961 E109.34937
G1 X106.112 Y114.230 E112.00984
G1 X105.414 Y114.435 E112.07729
G1 X85.560 Y94.580 E114.68336
G1 X85.277 Y95.200 E114.74654
G1 X104.717 Y114.640 E117.29820
G1 X104.020 Y114.844 E117.36565
G1 X85.071 Y95.896 E119.85283
G1 X84.958 Y96.684 E119.92678
G1 X103.323 Y115.049 E122.33731
G1 X102.625 Y115.254 E122.40476
G1 X84.844 Y97.473 E124.73864
G1 X84.731 Y98.262 E124.81259
G1 X101.813 Y115.344 E127.05474
G1 X100.911 Y115.344 E127.13847
G1 X84.618 Y99.050 E129.27710
G1 X84.504 Y99.839 E129.35105
G1 X100.009 Y115.344 E131.38617
G1 X99.107 Y115.344 E131.46989
G1 X84.646 Y100.883 E133.36799
G1 X84.798 Y101.936 E133.46677
G1 X98.205 Y115.344 E135.22659
G1 X97.036 Y115.076 E135.33791
G1 X84.949 Y102.990 E136.92437
G1 X85.100 Y104.043 E137.02316
G1 X95.759 Y114.701 E138.42212
G1 X94.482 Y114.326 E138.54565
G1 X85.770 Y105.615 E139.68910
G1 X86.528 Y107.275 F7800.000
G1 X92.673 Y113.420 E140.49564 F1800.000
G1 X90.149 Y111.798 F7800.000
G1 X89.619 Y111.268 E140.56516 F1800.000
G1 X113.472 Y92.725 F7800.000
G1 X107.327 Y86.580 E141.37172 F1800.000
G1 X109.851 Y88.202 F7800.000
G1 X110.381 Y88.732 E141.44127 F1800.000
G1 Z0.650 F7800.000
G1 X110.515 Y112.103 F7800.000
G1 X106.661 Y114.586 E141.81555 F3600.000
G1 X102.227 Y115.889 E142.19287
G1 X97.720 Y115.873 E142.56072
G1 X93.339 Y114.586 E142.93352
G1 X89.499 Y112.119 E143.30610
G1 X86.510 Y108.669 E143.67869
G1 X84.614 Y104.518 E144.05128
G1 X83.964 Y100.000 E144.42386
G1 X84.614 Y95.482 E144.79645
G1 X86.510 Y91.331 E145.16904
G1 X89.499 Y87.881 E145.54162
G1 X93.339 Y85.414 E145.91421
G1 X97.736 Y84.122 E146.28833
G1 X102.281 Y84.127 E146.65933
G1 X106.661 Y85.414 E147.03204 F3600.000
G1 X110.501 Y87.881 E147.40463
G1 X113.490 Y91.331 E147.77721
G1 X115.386 Y95.482 E148.14980
G1 X116.036 Y100.000 E148.52239
G1 X115.386 Y104.518 E148.89497
G1 X113.490 Y108.669 E149.26756
G1 X110.564 Y112.046 E149.63226
G1 X111.010 Y112.531 F7800.000
G1 X110.934 Y112.619 E149.64171 F3600.000
G1 X106.936 Y115.188 E150.02966
G1 X102.342 Y116.537 E150.42050
G1 X97.625 Y116.527 E150.80557
G1 X93.064 Y115.188 E151.19363
G1 X89.066 Y112.619 E151.58158
G1 X85.954 Y109.027 E151.96953
G1 X83.980 Y104.704 E152.35748
G1 X83.303 Y100.000 E152.74543
G1 X83.980 Y95.296 E153.13338
G1 X85.954 Y90.973 E153.52134
G1 X89.066 Y87.381 E153.90929
G1 X93.064 Y84.812 E154.29724
G1 X97.634 Y83.470 E154.68603
G1 X102.375 Y83.473 E155.07311
G1 X106.936 Y84.812 E155.46112 F3600.000
G1 X110.934 Y87.381 E155.84908
G1 X114.046 Y90.973 E156.23703
G1 X116.020 Y95.296 E156.62498
G1 X116.697 Y100.000 E157.01293
G1 X116.020 Y104.704 E157.40088
G1 X114.046 Y109.027 E157.78883
G1 X111.059 Y112.474 E158.16121
G1 X111.422 Y112.888 F7800.000
G1 X111.295 Y113.035 E158.17176 F1800.000
G1 X107.165 Y115.689 E158.43848
G1 X102.444 Y117.075 E158.70582
G1 X102.292 Y117.088 E158.71413
G1 X97.546 Y117.072 E158.97197
G1 X92.835 Y115.689 E159.23872
G1 X88.705 Y113.035 E159.50545
G1 X85.491 Y109.325 E159.77218
G1 X83.451 Y104.859 E160.03890
G1 X82.753 Y100.000 E160.30563
G1 X83.451 Y95.141 E160.57236
G1 X85.491 Y90.675 E160.83909
G1 X88.705 Y86.965 E161.10581
G1 X92.835 Y84.311 E161.37254
G1 X97.549 Y82.927 E161.63944
G1 X102.454 Y82.928 E161.90599
G1 X107.165 Y84.311 E162.17273 F1800.000
G1 X111.295 Y86.965 E162.43946
G1 X114.509 Y90.675 E162.70618
G1 X116.549 Y95.141 E162.97291
G1 X117.247 Y100.000 E163.23964
G1 X116.549 Y104.859 E163.50636
G1 X114.509 Y109.325 E163.77309
G1 X111.471 Y112.831 E164.02520
G1 X111.231 Y112.851 F7800.000
G1 X110.470 Y111.357 F7800.000
G1 X109.928 Y111.899 E164.08804 F1200.000
G1 X107.328 Y113.570 F7800.000
G1 X113.604 Y107.295 E164.81502 F1200.000
G1 X114.384 Y105.585 F7800.000
G1 X105.504 Y114.465 E165.84377 F1200.000
G1 X104.189 Y114.851 E165.95603
G1 X115.037 Y104.004 E167.21271
G1 X115.193 Y102.919 E167.30249
G1 X102.874 Y115.238 E168.72956
G1 X101.693 Y115.490 E168.82849
G1 X115.349 Y101.834 E170.41045
G1 X115.505 Y100.749 E170.50023
G1 X100.768 Y115.487 E172.20749
G1 X99.842 Y115.483 E172.28331
G1 X115.611 Y99.714 E174.11014
G1 X115.495 Y98.902 E174.17735
G1 X98.916 Y115.480 E176.09788
G1 X97.991 Y115.477 E176.17370
G1 X115.378 Y98.090 E178.18794
G1 X115.261 Y97.278 E178.25515
G1 X97.198 Y115.340 E180.34764
G1 X96.481 Y115.130 E180.40894
G1 X115.144 Y96.466 E182.57109
G1 X115.028 Y95.654 E182.63829
G1 X95.763 Y114.919 E184.87009
G1 X95.045 Y114.708 E184.93139
G1 X114.770 Y94.982 E187.21656
G1 X114.479 Y94.345 E187.27398
G1 X94.327 Y114.497 E189.60858
G1 X93.609 Y114.286 E189.66988
G1 X114.188 Y93.707 E192.05394
G1 X113.897 Y93.069 E192.11136
G1 X93.004 Y113.962 E194.53170
G1 X92.439 Y113.599 E194.58676
G1 X113.606 Y92.432 E197.03887
G1 X113.314 Y91.794 E197.09629
G1 X91.873 Y113.235 E199.58018
G1 X91.308 Y112.872 E199.63523
G1 X112.951 Y91.229 E202.14254
G1 X112.520 Y90.731 E202.19648
G1 X90.742 Y112.508 E204.71934
G1 X90.177 Y112.145 E204.77440
G1 X112.089 Y90.233 E207.31280
G1 X111.658 Y89.736 E207.36674
G1 X89.644 Y111.749 E209.91691
G1 X89.205 Y111.260 E209.97079
G1 X111.226 Y89.238 E212.52190
G1 X110.795 Y88.740 E212.57584
G1 X88.774 Y110.762 E215.12696
G1 X88.342 Y110.264 E215.18090
G1 X110.356 Y88.251 E217.73106
G1 X109.823 Y87.855 E217.78544
G1 X87.911 Y109.767 E220.32385
G1 X87.480 Y109.269 E220.37779
G1 X109.258 Y87.491 E222.90065
G1 X108.692 Y87.128 E222.95571
G1 X87.049 Y108.771 E225.46301
G1 X86.686 Y108.206 E225.51807
G1 X108.127 Y86.765 E228.00196
G1 X107.561 Y86.401 E228.05702
G1 X86.394 Y107.568 E230.50913
G1 X86.103 Y106.931 E230.56655
G1 X106.996 Y86.038 E232.98689
G1 X106.391 Y85.714 E233.04308
G1 X85.812 Y106.293 E235.42714
G1 X85.521 Y105.655 E235.48456
G1 X105.673 Y85.503 E237.81916
G1 X104.955 Y85.292 E237.88046
G1 X85.230 Y105.018 E240.16563
G1 X84.972 Y104.346 E240.22453
G1 X104.237 Y85.081 E242.45633
G1 X103.519 Y84.870 E242.51763
G1 X84.856 Y103.534 E244.67977
G1 X84.739 Y102.722 E244.74698
G1 X102.801 Y84.660 E246.83947
G1 X102.008 Y84.524 E246.90542
G1 X84.622 Y101.910 E248.91950
G1 X84.505 Y101.098 E248.98671
G1 X101.080 Y84.523 E250.90683
G1 X100.152 Y84.522 E250.98284
G1 X84.389 Y100.286 E252.80900
G1 X84.495 Y99.251 E252.89427
G1 X99.224 Y84.521 E254.60061
G1 X98.297 Y84.520 E254.67661
G1 X84.651 Y98.166 E256.25740
G1 X84.807 Y97.081 E256.34717
G1 X97.126 Y84.762 E257.77424
G1 X95.811 Y85.149 E257.88650
G1 X84.963 Y95.996 E259.14317
G1 X85.616 Y94.415 F7800.000
G1 X94.496 Y85.535 E260.17192 F1200.000
G1 X92.672 Y86.430 F7800.000
G1 X86.396 Y92.705 E260.89888 F1200.000
G1 X89.530 Y88.643 F7800.000
G1 X90.072 Y88.101 E260.96169 F1200.000
G1 Z0.950 F7800.000
G1 X110.515 Y112.103 F7800.000
G1 X106.662 Y114.586 E261.33586 F3600.000
G1 X102.171 Y115.896 E261.71782
G1 X97.763 Y115.886 E262.07763
G1 X93.339 Y114.586 E262.45406
G1 X89.499 Y112.119 E262.82664
G1 X86.510 Y108.669 E263.19923
G1 X84.614 Y104.518 E263.57182
G1 X83.964 Y100.000 E263.94441
G1 X84.614 Y95.482 E264.31699
G1 X86.510 Y91.331 E264.68958
G1 X89.499 Y87.881 E265.06217
G1 X93.339 Y85.414 E265.43475
G1 X97.782 Y84.109 E265.81281
G1 X98.045 Y84.113 E265.83423
G1 X102.233 Y84.113 E266.17616 F3600.000
G1 X106.661 Y85.414 E266.55291
G1 X110.501 Y87.881 E266.92549
G1 X113.490 Y91.331 E267.29808
G1 X115.386 Y95.482 E267.67067
G1 X116.036 Y100.000 E268.04325
G1 X115.386 Y104.518 E268.41584
G1 X113.490 Y108.669 E268.78843
G1 X110.564 Y112.046 E269.15313
G1 X111.010 Y112.531 F7800.000
G1 X110.934 Y112.619 E269.16258 F3600.000
G1 X106.937 Y115.188 E269.55047
G1 X102.290 Y116.543 E269.94556
G1 X97.669 Y116.540 E270.32283
G1 X93.064 Y115.188 E270.71462
G1 X89.066 Y112.619 E271.10257
G1 X85.954 Y109.027 E271.49052
G1 X83.980 Y104.704 E271.87847
G1 X83.303 Y100.000 E272.26642
G1 X83.980 Y95.296 E272.65437
G1 X85.954 Y90.973 E273.04232
G1 X89.066 Y87.381 E273.43027
G1 X93.064 Y84.812 E273.81822
G1 X97.659 Y83.463 E274.20917
G1 X98.058 Y83.459 E274.24172
G1 X102.327 Y83.459 E274.59026 F3600.000
G1 X106.936 Y84.812 E274.98237
G1 X110.934 Y87.381 E275.37032
G1 X114.046 Y90.973 E275.75827
G1 X116.020 Y95.296 E276.14622
G1 X116.697 Y100.000 E276.53417
G1 X116.020 Y104.704 E276.92212
G1 X114.046 Y109.027 E277.31007
G1 X111.059 Y112.474 E277.68245
G1 X111.422 Y112.888 F7800.000
G1 X111.295 Y113.035 E277.69300 F1800.000
G1 X107.165 Y115.689 E277.95971
G1 X102.389 Y117.082 E278.23001
G1 X102.186 Y117.098 E278.24111
G1 X97.560 Y117.076 E278.49244
G1 X92.835 Y115.689 E278.75999
G1 X88.705 Y113.035 E279.02671
G1 X85.491 Y109.325 E279.29344
G1 X83.451 Y104.859 E279.56017
G1 X82.753 Y100.000 E279.82689
G1 X83.451 Y95.141 E280.09362
G1 X85.491 Y90.675 E280.36035
G1 X88.705 Y86.965 E280.62708
G1 X92.835 Y84.311 E280.89380
G1 X97.557 Y82.925 E281.16116
G1 X97.798 Y82.903 E281.17431
G1 X98.069 Y82.914 E281.18905
G1 X102.440 Y82.924 E281.42657 F1800.000
G1 X107.165 Y84.311 E281.69411
G1 X111.295 Y86.965 E281.96084
G1 X114.509 Y90.675 E282.22756
G1 X116.549 Y95.141 E282.49429
G1 X117.247 Y100.000 E282.76102
G1 X116.549 Y104.859 E283.02774
G1 X114.509 Y109.325 E283.29447
G1 X111.471 Y112.831 E283.54658
G1 X111.231 Y112.851 F7800.000
G1 X94.496 Y114.465 F7800.000
G1 X85.616 Y105.585 E284.57533 F1200.000
G1 X84.963 Y104.004 F7800.000
G1 X95.811 Y114.851 E285.83200 F1200.000
G1 X97.126 Y115.238 E285.94426
G1 X84.807 Y102.919 E287.37133
G1 X84.651 Y101.834 E287.46110
