; generated by Slic3r 1.2.9 on 2017-10-12 at 14:39:38

; external perimeters extrusion width = 0.50mm
; perimeters extrusion width = 0.72mm
; infill extrusion width = 0.72mm
; solid infill extrusion width = 0.72mm
; top infill extrusion width = 0.72mm

M107
M104 S200 ; set temperature
G28 ; home all axes
G1 Z5 F5000 ; lift nozzle

M109 S200 ; wait for temperature to be reached
G21 ; set units to millimeters
G90 ; use absolute coordinates
M82 ; use absolute distances for extrusion
G92 E0
G1 Z0.350 F7800.000
G1 E-2.00000 F2400.00000
G92 E0
G1 X89.395 Y89.395 F7800.000
G1 E2.00000 F2400.00000
G1 X90.309 Y88.481 E2.11751 F1800.000
G1 X93.067 Y86.639 E2.41908
G1 X95.455 Y85.649 E2.65412
G1 X98.708 Y85.002 E2.95570
G1 X101.292 Y85.002 E3.19074
G1 X104.545 Y85.649 E3.49232
G1 X106.933 Y86.639 E3.72735 F1800.000
G1 X107.045 Y86.713 E3.73959
G1 X109.691 Y88.481 E4.02893
G1 X111.519 Y90.309 E4.26397
G1 X113.361 Y93.067 E4.56555
G1 X114.351 Y95.455 E4.80059
G1 X114.998 Y98.708 E5.10216
G1 X114.998 Y101.292 E5.33721
G1 X114.351 Y104.545 E5.63878
G1 X113.361 Y106.933 E5.87382
G1 X111.519 Y109.691 E6.17539
G1 X109.691 Y111.519 E6.41044
G1 X106.933 Y113.361 E6.71201
G1 X104.545 Y114.351 E6.94705
G1 X101.292 Y114.998 E7.24862
G1 X98.708 Y114.998 E7.48367
G1 X95.455 Y114.351 E7.78524
G1 X93.067 Y113.361 E8.02028
G1 X90.309 Y111.519 E8.32185
G1 X88.481 Y109.691 E8.55689
G1 X86.639 Y106.933 E8.85847
G1 X85.649 Y104.545 E9.09351
G1 X85.618 Y104.387 E9.10817
G1 X85.002 Y101.292 E9.39508
G1 X85.002 Y98.708 E9.63012
G1 X85.649 Y95.455 E9.93170
G1 X86.639 Y93.067 E10.16674
G1 X88.481 Y90.309 E10.46831
G1 X89.342 Y89.448 E10.57903
G1 E8.57903 F2400.00000
G92 E0
G1 X104.857 Y104.857 F7800.000
G1 E2.00000 F2400.00000
G1 X102.629 Y106.346 E2.24370 F1800.000
G1 X100.000 Y106.869 E2.48740
G1 X97.371 Y106.346 E2.73110
G1 X95.143 Y104.857 E2.97480
G1 X93.654 Y102.629 E3.21850
G1 X93.131 Y100.000 E3.46220
G1 X93.654 Y97.371 E3.70591
G1 X95.143 Y95.143 E3.94961
G1 X97.371 Y93.654 E4.19331
G1 X100.000 Y93.131 E4.43701
G1 X102.629 Y93.654 E4.68071
G1 X104.857 Y95.143 E4.92441 F1800.000
G1 X106.346 Y97.371 E5.16811
G1 X106.869 Y100.000 E5.41181
G1 X106.346 Y102.629 E5.65551
G1 X104.899 Y104.795 E5.89239
G1 X105.204 Y105.377 F7800.000
G1 X102.872 Y106.935 E6.14740 F1800.000
G1 X100.000 Y107.506 E6.41370
G1 X97.128 Y106.935 E6.68001
G1 X94.692 Y105.308 E6.94631
G1 X93.065 Y102.872 E7.21262
G1 X92.494 Y100.000 E7.47892
G1 X93.065 Y97.128 E7.74523
G1 X94.692 Y94.692 E8.01153
G1 X97.128 Y93.065 E8.27784
G1 X100.000 Y92.494 E8.54414
G1 X102.872 Y93.065 E8.81045
G1 X105.308 Y94.692 E9.07676 F1800.000
G1 X106.935 Y97.128 E9.34306
G1 X107.506 Y100.000 E9.60937
G1 X106.935 Y102.872 E9.87567
G1 X105.308 Y105.308 E10.14198
G1 X105.267 Y105.335 E10.14646
G1 X105.551 Y105.896 F7800.000
G1 X103.116 Y107.523 E10.41277 F1800.000
G1 X100.000 Y108.143 E10.70168
G1 X96.884 Y107.523 E10.99059
G1 X94.242 Y105.758 E11.27950
G1 X92.477 Y103.116 E11.56841
G1 X91.857 Y100.000 E11.85732
G1 X92.477 Y96.884 E12.14623
G1 X94.242 Y94.242 E12.43514
G1 X96.884 Y92.477 E12.72405
G1 X100.000 Y91.857 E13.01296
G1 X100.090 Y91.875 E13.02129
G1 X103.116 Y92.477 E13.30187 F1800.000
G1 X105.758 Y94.242 E13.59078
G1 X107.523 Y96.884 E13.87969
G1 X108.143 Y100.000 E14.16860
G1 X107.523 Y103.116 E14.45751
G1 X105.758 Y105.758 E14.74642
G1 X105.614 Y105.855 E14.76220
G1 X105.103 Y105.675 F7800.000
G1 X98.003 Y106.057 F7800.000
G1 X93.943 Y101.997 E15.29087 F1800.000
G1 X93.721 Y100.880 E15.39573
G1 X99.120 Y106.279 E16.09876
G1 X100.203 Y106.466 E16.19989
G1 X93.534 Y99.797 E17.06824
G1 X93.682 Y99.051 E17.13831
G1 X100.949 Y106.318 E18.08451
G1 X101.695 Y106.169 E18.15458
G1 X93.831 Y98.305 E19.17863
G1 X93.979 Y97.558 E19.24870
G1 X102.442 Y106.021 E20.35061
G1 X103.012 Y105.696 E20.41102
G1 X94.304 Y96.988 E21.54489
G1 X94.662 Y96.452 E21.60429
G1 X103.548 Y105.338 E22.76135
G1 X104.085 Y104.979 E22.82074
G1 X95.020 Y95.915 E24.00097
G1 X95.393 Y95.393 E24.06003
G1 X104.607 Y104.607 E25.25968
G1 X104.979 Y104.085 E25.31874
G1 X95.915 Y95.021 E26.49898
G1 X96.452 Y94.662 E26.55837
G1 X105.338 Y103.548 E27.71543
G1 X105.696 Y103.012 E27.77483
G1 X96.988 Y94.304 E28.90870
G1 X97.558 Y93.979 E28.96911
G1 X106.021 Y102.442 E30.07102
G1 X106.169 Y101.695 E30.14109
G1 X98.305 Y93.831 E31.16514
G1 X99.051 Y93.682 E31.23521
G1 X106.318 Y100.949 E32.18142
G1 X106.466 Y100.203 E32.25148
G1 X99.797 Y93.534 E33.11983
G1 X100.880 Y93.721 E33.22096
G1 X106.279 Y99.120 E33.92400
G1 X106.057 Y98.003 E34.02886
G1 X101.997 Y93.943 E34.55752
G1 X104.269 Y95.321 F7800.000
G1 X104.679 Y95.731 E34.61092 F1800.000
G1 X95.731 Y104.679 F7800.000
G1 X95.321 Y104.269 E34.66431 F1800.000
G1 Z0.650 F7800.000
G1 X104.940 Y104.982 F7800.000
G1 X102.687 Y106.488 E34.88554 F3600.000
G1 X100.000 Y107.022 E35.10920
G1 X97.313 Y106.488 E35.33286
G1 X95.035 Y104.965 E35.55652
G1 X93.512 Y102.687 E35.78019
G1 X92.978 Y100.000 E36.00385
G1 X93.512 Y97.313 E36.22751
G1 X95.035 Y95.035 E36.45117
G1 X97.313 Y93.512 E36.67484
G1 X100.000 Y92.978 E36.89850
G1 X100.129 Y93.004 E36.90922
G1 X102.687 Y93.512 E37.12216 F3600.000
G1 X104.965 Y95.035 E37.34582
G1 X106.488 Y97.313 E37.56949
G1 X107.022 Y100.000 E37.79315
G1 X106.488 Y102.687 E38.01681
G1 X104.990 Y104.928 E38.23679
G1 X105.304 Y105.526 F7800.000
G1 X102.943 Y107.104 E38.46864 F3600.000
G1 X100.000 Y107.689 E38.71356
G1 X97.057 Y107.104 E38.95848
G1 X94.563 Y105.437 E39.20339
G1 X92.896 Y102.943 E39.44831
G1 X92.311 Y100.000 E39.69323
G1 X92.896 Y97.057 E39.93815
G1 X94.563 Y94.563 E40.18306
G1 X97.057 Y92.896 E40.42798
G1 X100.000 Y92.311 E40.67290
G1 X100.257 Y92.362 E40.69425
G1 X102.943 Y92.896 E40.91782 F3600.000
G1 X105.437 Y94.563 E41.16274
G1 X107.104 Y97.057 E41.40765
G1 X107.689 Y100.000 E41.65257
G1 X107.104 Y102.943 E41.89749
G1 X105.437 Y105.437 E42.14241
G1 X105.366 Y105.484 E42.14935
G1 X105.607 Y105.979 F7800.000
G1 X103.155 Y107.617 E42.30956 F1800.000
G1 X100.000 Y108.245 E42.48435
G1 X96.845 Y107.617 E42.65914
G1 X94.170 Y105.830 E42.83393
G1 X92.383 Y103.155 E43.00873
G1 X91.755 Y100.000 E43.18352
G1 X92.383 Y96.845 E43.35831
G1 X94.170 Y94.170 E43.53311
G1 X96.845 Y92.383 E43.70790
G1 X100.000 Y91.755 E43.88269
G1 X100.363 Y91.827 E43.90279
G1 X103.155 Y92.383 E44.05749 F1800.000
G1 X105.830 Y94.170 E44.23228
G1 X107.617 Y96.845 E44.40707
G1 X108.245 Y100.000 E44.58187
G1 X107.617 Y103.155 E44.75666
G1 X105.830 Y105.830 E44.93145
G1 X105.669 Y105.938 E44.94197
G1 X105.158 Y105.758 F7800.000
G1 X104.353 Y104.776 F7800.000
G1 X104.776 Y104.353 E44.99262 F1200.000
G1 X106.194 Y101.974 F7800.000
G1 X101.974 Y106.194 E45.49839 F1200.000
G1 X100.774 Y106.432 E45.60203
G1 X106.432 Y100.774 E46.28015
G1 X106.576 Y99.670 E46.37454
G1 X99.670 Y106.576 E47.20224
G1 X98.868 Y106.417 E47.27149
G1 X106.417 Y98.868 E48.17614
G1 X106.257 Y98.067 E48.24539
G1 X98.067 Y106.257 E49.22698
G1 X97.299 Y106.065 E49.29411
G1 X106.065 Y97.299 E50.34471
G1 X105.680 Y96.723 E50.40342
G1 X96.723 Y105.680 E51.47693
G1 X96.146 Y105.295 E51.53564
G1 X105.295 Y96.146 E52.63205
G1 X104.910 Y95.570 E52.69076
G1 X95.570 Y104.910 E53.81009
G1 X95.090 Y104.430 E53.86767
G1 X104.430 Y95.090 E54.98699
G1 X103.853 Y94.705 E55.04570
G1 X94.705 Y103.853 E56.14211
G1 X94.320 Y103.277 E56.20082
G1 X103.277 Y94.320 E57.27433
G1 X102.701 Y93.935 E57.33304
G1 X93.935 Y102.701 E58.38364
G1 X93.743 Y101.933 E58.45077
G1 X101.933 Y93.743 E59.43236
G1 X101.132 Y93.583 E59.50161
G1 X93.583 Y101.132 E60.40626
G1 X93.424 Y100.330 E60.47551
G1 X100.330 Y93.424 E61.30321
G1 X99.226 Y93.568 E61.39760
G1 X93.568 Y99.226 E62.07571
G1 X93.806 Y98.026 E62.17936
G1 X98.026 Y93.806 E62.68512
G1 X95.647 Y95.224 F7800.000
G1 X95.224 Y95.647 E62.73577 F1200.000
G1 Z0.950 F7800.000
G1 X104.940 Y104.982 F7800.000
G1 X102.687 Y106.488 E62.95699 F3600.000
G1 X100.000 Y107.022 E63.18066
G1 X97.313 Y106.488 E63.40432
G1 X95.035 Y104.965 E63.62798
G1 X93.512 Y102.687 E63.85164
G1 X92.978 Y100.000 E64.07531
G1 X93.512 Y97.313 E64.29897
G1 X95.035 Y95.035 E64.52263
G1 X97.313 Y93.512 E64.74629
G1 X100.000 Y92.978 E64.96996
G1 X100.440 Y93.065 E65.00658
G1 X102.687 Y93.512 E65.19362 F3600.000
G1 X104.965 Y95.035 E65.41728
G1 X106.488 Y97.313 E65.64094
G1 X107.022 Y100.000 E65.86461
G1 X106.488 Y102.687 E66.08827
G1 X104.990 Y104.928 E66.30825
G1 X105.304 Y105.526 F7800.000
G1 X102.943 Y107.104 E66.54010 F3600.000
G1 X100.000 Y107.689 E66.78502
G1 X97.057 Y107.104 E67.02993
G1 X94.563 Y105.437 E67.27485
G1 X92.896 Y102.943 E67.51977
G1 X92.311 Y100.000 E67.76469
G1 X92.896 Y97.057 E68.00961
G1 X94.563 Y94.563 E68.25452
G1 X97.057 Y92.896 E68.49944
G1 X100.000 Y92.311 E68.74436
G1 X100.568 Y92.424 E68.79161
G1 X102.943 Y92.896 E68.98928 F3600.000
G1 X105.437 Y94.563 E69.23419
G1 X107.104 Y97.057 E69.47911
G1 X107.689 Y100.000 E69.72403
G1 X107.104 Y102.943 E69.96895
G1 X105.437 Y105.437 E70.21386
G1 X105.366 Y105.484 E70.22081
G1 X105.607 Y105.979 F7800.000
G1 X103.155 Y107.617 E70.38101 F1800.000
G1 X100.000 Y108.245 E70.55581
G1 X96.845 Y107.617 E70.73060
G1 X94.170 Y105.830 E70.90539
G1 X92.383 Y103.155 E71.08019
G1 X91.755 Y100.000 E71.25498
G1 X92.383 Y96.845 E71.42977
G1 X94.170 Y94.170 E71.60457
G1 X96.845 Y92.383 E71.77936
G1 X100.000 Y91.755 E71.95415
G1 X100.674 Y91.889 E71.99149
G1 X103.155 Y92.383 E72.12895 F1800.000
G1 X105.830 Y94.170 E72.30374
G1 X107.617 Y96.845 E72.47853
G1 X108.245 Y100.000 E72.65332
G1 X107.617 Y103.155 E72.82812
G1 X105.830 Y105.830 E73.00291
G1 X105.669 Y105.938 E73.01342
G1 X105.158 Y105.758 F7800.000
G1 X95.647 Y104.776 F7800.000
G1 X95.224 Y104.353 E73.06407 F1200.000
G1 X93.806 Y101.974 F7800.000
G1 X98.026 Y106.194 E73.56984 F1200.000
G1 X99.226 Y106.432 E73.67348
G1 X93.568 Y100.774 E74.35160
G1 X93.424 Y99.670 E74.44599
G1 X100.330 Y106.576 E75.27368
G1 X101.132 Y106.417 E75.34293
G1 X93.583 Y98.868 E76.24758
G1 X93.743 Y98.067 E76.31683
G1 X101.933 Y106.257 E77.29843
G1 X102.701 Y106.065 E77.36555
G1 X93.935 Y97.299 E78.41615
G1 X94.320 Y96.723 E78.47486
G1 X103.277 Y105.680 E79.54837
G1 X103.853 Y105.295 E79.60708
G1 X94.705 Y96.147 E80.70350
G1 X95.090 Y95.570 E80.76220
G1 X104.430 Y104.910 E81.88153
G1 X104.910 Y104.430 E81.93911
G1 X95.570 Y95.090 E83.05843
G1 X96.146 Y94.705 E83.11714
G1 X105.295 Y103.853 E84.21356
G1 X105.680 Y103.277 E84.27226
G1 X96.723 Y94.320 E85.34577
G1 X97.299 Y93.935 E85.40448
G1 X106.065 Y102.701 E86.45508
G1 X106.257 Y101.933 E86.52221
G1 X98.067 Y93.743 E87.50381
G1 X98.868 Y93.583 E87.57306
G1 X106.417 Y101.132 E88.47770
G1 X106.576 Y100.330 E88.54696
G1 X99.670 Y93.424 E89.37465
G1 X100.774 Y93.568 E89.46904
G1 X106.432 Y99.226 E90.14716
G1 X106.194 Y98.026 E90.25080
G1 X101.974 Y93.806 E90.75657
G1 X104.353 Y95.224 F7800.000
G1 X104.776 Y95.647 E90.80723 F1200.000
M106 S216.75
G1 Z1.250 F7800.000
G1 E88.80723 F2400.00000
G92 E0
G1 X104.493 Y104.493 F7800.000
G1 E2.00000 F2400.00000
G1 X102.432 Y105.871 E2.20241 F900.000
G1 X100.000 Y106.355 E2.40481
G1 X97.568 Y105.871 E2.60722
G1 X95.507 Y104.493 E2.80963
G1 X94.129 Y102.432 E3.01204
G1 X93.645 Y100.000 E3.21444
G1 X94.129 Y97.568 E3.41685
G1 X95.507 Y95.507 E3.61926
G1 X97.568 Y94.129 E3.82167
G1 X100.000 Y93.645 E4.02407
G1 X100.583 Y93.761 E4.07263
G1 X102.432 Y94.129 E4.22648 F900.000
G1 X104.493 Y95.507 E4.42889
G1 X105.871 Y97.568 E4.63130
G1 X106.355 Y100.000 E4.83370
G1 X105.871 Y102.432 E5.03611
G1 X104.535 Y104.431 E5.23240
G1 X104.857 Y105.038 F7800.000
G1 X102.687 Y106.488 E5.44543 F3600.000
G1 X100.000 Y107.022 E5.66909
G1 X97.313 Y106.488 E5.89276
G1 X95.035 Y104.965 E6.11642
G1 X93.512 Y102.687 E6.34008
G1 X92.978 Y100.000 E6.56374
G1 X93.512 Y97.313 E6.78741
G1 X95.035 Y95.035 E7.01107
G1 X97.313 Y93.512 E7.23473
G1 X100.000 Y92.978 E7.45839
G1 X100.711 Y93.119 E7.51758
G1 X102.687 Y93.512 E7.68206 F3600.000
G1 X104.965 Y95.035 E7.90572
G1 X106.488 Y97.313 E8.12938
G1 X107.022 Y100.000 E8.35304
G1 X106.488 Y102.687 E8.57671
G1 X104.965 Y104.965 E8.80037
G1 X104.919 Y104.996 E8.80487
G1 X105.221 Y105.582 F7800.000
G1 X102.943 Y107.104 E9.02854 F3600.000
G1 X100.000 Y107.689 E9.27345
G1 X97.057 Y107.104 E9.51837
G1 X94.563 Y105.437 E9.76329
G1 X92.896 Y102.943 E10.00821
G1 X92.311 Y100.000 E10.25312
G1 X92.896 Y97.057 E10.49804
G1 X94.563 Y94.563 E10.74296
G1 X97.057 Y92.896 E10.98788
G1 X100.000 Y92.311 E11.23280
G1 X100.839 Y92.477 E11.30261
G1 X102.943 Y92.896 E11.47771 F3600.000
G1 X105.437 Y94.563 E11.72263
G1 X107.104 Y97.057 E11.96755
G1 X107.689 Y100.000 E12.21247
G1 X107.104 Y102.943 E12.45738
G1 X105.437 Y105.437 E12.70230
G1 X105.283 Y105.540 E12.71743
G1 X105.524 Y106.035 F7800.000
G1 X103.155 Y107.617 E12.87219 F1800.000
G1 X100.000 Y108.245 E13.04698
G1 X96.845 Y107.617 E13.22178
G1 X94.170 Y105.830 E13.39657
G1 X92.383 Y103.155 E13.57136
G1 X91.755 Y100.000 E13.74615
G1 X92.383 Y96.845 E13.92095
G1 X94.170 Y94.170 E14.09574
G1 X96.845 Y92.383 E14.27053
G1 X100.000 Y91.755 E14.44533
G1 X100.945 Y91.943 E14.49769
G1 X103.155 Y92.383 E14.62012 F1800.000
G1 X105.830 Y94.170 E14.79491
G1 X107.617 Y96.845 E14.96971
G1 X108.245 Y100.000 E15.14450
G1 X107.617 Y103.155 E15.31929
G1 X105.830 Y105.830 E15.49409
G1 X105.586 Y105.993 E15.51005
G1 X105.075 Y105.814 F7800.000
G1 E13.51005 F2400.00000
G92 E0
G1 X103.881 Y104.304 F7800.000
G1 E2.00000 F2400.00000
G1 X104.304 Y103.881 E2.05076 F900.000
G1 E0.05076 F2400.00000
G92 E0
G1 X105.596 Y101.626 F7800.000
G1 E2.00000 F2400.00000
G1 X101.626 Y105.596 E2.47673 F900.000
G1 X100.424 Y105.835 E2.58081
G1 X105.835 Y100.424 E3.23062
G1 X105.862 Y99.434 E3.31473
G1 X99.434 Y105.862 E4.08669
G1 X98.631 Y105.702 E4.15623
G1 X105.702 Y98.631 E5.00546
G1 X105.542 Y97.828 E5.07501
G1 X97.828 Y105.542 E6.00151
G1 X97.197 Y105.210 E6.06204
G1 X105.210 Y97.197 E7.02434
G1 X104.824 Y96.620 E7.08330
G1 X96.620 Y104.824 E8.06860
G1 X96.043 Y104.438 E8.12756
G1 X104.438 Y96.043 E9.13587
G1 X103.957 Y95.561 E9.19369
G1 X95.561 Y103.957 E10.20200
G1 X95.176 Y103.380 E10.26095
G1 X103.380 Y95.176 E11.24626
G1 X102.803 Y94.790 E11.30521
G1 X94.790 Y102.803 E12.26752
G1 X94.458 Y102.172 E12.32805
G1 X102.172 Y94.458 E13.25455
G1 X101.369 Y94.298 E13.32409
G1 X94.298 Y101.369 E14.17332
G1 X94.138 Y100.566 E14.24287
G1 X100.566 Y94.138 E15.01483
G1 X99.576 Y94.165 E15.09893
G1 X94.165 Y99.576 E15.74874
G1 X94.404 Y98.374 E15.85282
G1 X98.374 Y94.404 E16.32955
G1 E14.32955 F2400.00000
G92 E0
G1 X96.119 Y95.696 F7800.000
G1 E2.00000 F2400.00000
G1 X95.696 Y96.119 E2.05075 F900.000
M106 S252.45
G1 Z1.550 F7800.000
G1 E0.05075 F2400.00000
G92 E0
G1 X104.477 Y105.201 F7800.000
G1 E2.00000 F2400.00000
G1 X104.312 Y105.408 E2.01437 F1800.000
G1 X101.539 Y106.743 E2.18162
G1 X98.461 Y106.743 E2.34886
G1 X95.688 Y105.408 E2.51610
G1 X93.768 Y103.001 E2.68335
G1 X93.084 Y100.000 E2.85059
G1 X93.768 Y96.999 E3.01783
G1 X95.688 Y94.592 E3.18507
G1 X98.461 Y93.257 E3.35232
G1 X101.539 Y93.257 E3.51956 F1800.000
G1 X104.312 Y94.592 E3.68680
G1 X106.232 Y96.999 E3.85405
G1 X106.916 Y100.000 E4.02129
G1 X106.232 Y103.001 E4.18853
G1 X104.524 Y105.142 E4.33733
G1 X104.574 Y105.447 F7800.000
G1 E2.33733 F2400.00000
G92 E0
G1 X100.202 Y92.712 F7800.000
G1 E2.00000 F2400.00000
G1 X99.798 Y92.712 E2.03291 F900.000
G1 X99.764 Y92.358 E2.06196
G1 X100.000 Y92.311 E2.08164
G1 X100.236 Y92.358 E2.10132
G1 X100.209 Y92.637 E2.12425
G1 E0.12425 F2400.00000
G92 E0
G1 X100.202 Y107.288 F7800.000
G1 E2.00000 F2400.00000
G1 X100.236 Y107.642 E2.02905 F900.000
G1 X100.000 Y107.689 E2.04873
G1 X99.764 Y107.642 E2.06841
G1 X99.798 Y107.288 E2.09747
