; generated by Slic3r 1.2.9 on 2017-10-12 at 16:16:25

; external perimeters extrusion width = 0.50mm
; perimeters extrusion width = 0.72mm
; infill extrusion width = 0.72mm
; solid infill extrusion width = 0.72mm
; top infill extrusion width = 0.72mm

M107
M104 S200 ; set temperature
G28 ; home all axes
G1 Z5 F5000 ; lift nozzle

M109 S200 ; wait for temperature to be reached
G21 ; set units to millimeters
G90 ; use absolute coordinates
M82 ; use absolute distances for extrusion
G92 E0
G1 Z0.350 F7800.000
G1 E-2.00000 F2400.00000
G92 E0
G1 X70.985 Y67.691 F7800.000
G1 E2.00000 F2400.00000
G1 X72.816 Y65.860 E2.23535 F1800.000
G1 X74.693 Y64.544 E2.44389
G1 X75.785 Y64.146 E2.54956
G1 X78.285 Y63.476 E2.78492
G1 X80.000 Y63.250 E2.94217
G1 X125.000 Y63.250 E7.03400
G1 X127.259 Y63.647 E7.24255
G1 X129.247 Y64.790 E7.45109 F1800.000
G1 X130.726 Y66.543 E7.65963
G1 X131.519 Y68.695 E7.86817
G1 X131.625 Y69.875 E7.97588
G1 X131.625 Y130.125 E13.45439
G1 X131.228 Y132.384 E13.66293
G1 X130.085 Y134.372 E13.87147
G1 X128.332 Y135.851 E14.08002
G1 X126.180 Y136.644 E14.28856
G1 X125.000 Y136.750 E14.39627
G1 X100.000 Y136.750 E16.66951
G1 X97.741 Y136.353 E16.87805
G1 X95.753 Y135.210 E17.08659
G1 X94.431 Y133.714 E17.26807
G1 X70.101 Y95.964 E21.35183
G1 X69.271 Y94.090 E21.53825
G1 X68.601 Y91.590 E21.77359
G1 X68.375 Y89.875 E21.93085
G1 X68.375 Y74.875 E23.29479
G1 X68.601 Y73.160 E23.45204
G1 X69.271 Y70.660 E23.68739
G1 X70.239 Y68.581 E23.89593
G1 X70.937 Y67.748 E23.99479
G1 E21.99479 F2400.00000
G92 E0
G1 X121.514 Y84.889 F7800.000
G1 E2.00000 F2400.00000
G1 X119.000 Y85.930 E2.24742 F1800.000
G1 X116.486 Y84.889 E2.49485
G1 X115.445 Y82.375 E2.74227
G1 X116.486 Y79.861 E2.98969
G1 X116.921 Y79.681 E3.03250
G1 X119.000 Y78.820 E3.23712 F1800.000
G1 X121.514 Y79.861 E3.48454
G1 X122.555 Y82.375 E3.73196
G1 X121.543 Y84.820 E3.97257
G1 X121.036 Y84.411 F7800.000
G1 X119.000 Y85.254 E4.17292 F1800.000
G1 X116.964 Y84.411 E4.37327
G1 X116.121 Y82.375 E4.57362
G1 X116.964 Y80.339 E4.77397
G1 X117.160 Y80.258 E4.79324
G1 X119.000 Y79.496 E4.97432 F1800.000
G1 X121.036 Y80.339 E5.17467
G1 X121.879 Y82.375 E5.37502
G1 X121.064 Y84.341 E5.56856
G1 X121.101 Y84.906 F7800.000
G1 E3.56856 F2400.00000
G92 E0
G1 X110.232 Y82.375 F7800.000
G1 E2.00000 F2400.00000
G1 X108.992 Y85.367 E2.29450 F1800.000
G1 X106.000 Y86.607 E2.58899
G1 X103.008 Y85.367 E2.88349
G1 X101.768 Y82.375 E3.17798
G1 X103.008 Y79.383 E3.47247
G1 X103.682 Y79.104 E3.53882
G1 X106.000 Y78.143 E3.76697 F1800.000
G1 X108.992 Y79.383 E4.06147
G1 X110.203 Y82.306 E4.34914
G1 X109.555 Y82.375 F7800.000
G1 X108.514 Y84.889 E4.59656 F1800.000
G1 X106.000 Y85.930 E4.84399
G1 X103.486 Y84.889 E5.09141
G1 X102.445 Y82.375 E5.33883
G1 X103.486 Y79.861 E5.58626
G1 X103.921 Y79.681 E5.62906
G1 X106.000 Y78.820 E5.83368 F1800.000
G1 X108.514 Y79.861 E6.08110
G1 X109.527 Y82.306 E6.32171
G1 X108.879 Y82.375 F7800.000
G1 X108.036 Y84.411 E6.52206 F1800.000
G1 X106.000 Y85.254 E6.72241
G1 X103.964 Y84.411 E6.92276
G1 X103.121 Y82.375 E7.12311
G1 X103.964 Y80.339 E7.32346
G1 X104.160 Y80.258 E7.34274
G1 X106.000 Y79.496 E7.52381 F1800.000
G1 X108.036 Y80.339 E7.72417
G1 X108.850 Y82.306 E7.91770
G1 X109.276 Y82.679 F7800.000
G1 E5.91770 F2400.00000
G92 E0
G1 X101.600 Y93.275 F7800.000
G1 E2.00000 F2400.00000
G1 X80.211 Y93.275 E3.94491 F1800.000
G1 X78.328 Y92.771 E4.12212
G1 X77.104 Y91.547 E4.27951
G1 X76.600 Y89.664 E4.45672
G1 X76.600 Y75.086 E5.78237
G1 X77.104 Y73.203 E5.95958
G1 X78.328 Y71.979 E6.11697
G1 X80.211 Y71.475 E6.29418
G1 X123.400 Y71.475 E10.22139
G1 X123.400 Y81.994 E11.17786
G1 X123.098 Y82.054 E11.20584
G1 X121.992 Y79.383 E11.46870
G1 X119.000 Y78.143 E11.76319
G1 X116.008 Y79.383 E12.05769
G1 X114.768 Y82.375 E12.35218
G1 X116.008 Y85.367 E12.64668
G1 X119.000 Y86.607 E12.94117
G1 X121.992 Y85.367 E13.23567
G1 X123.098 Y82.696 E13.49852
G1 X123.400 Y82.756 E13.52650
G1 X123.400 Y128.525 E17.68823
G1 X101.600 Y128.525 E19.67054
G1 X101.600 Y93.350 E22.86899
G1 X100.975 Y93.900 F7800.000
G1 X80.128 Y93.900 E24.76456 F1800.000
G1 X78.005 Y93.331 E24.96448
G1 X76.544 Y91.870 E25.15231
G1 X75.975 Y89.747 E25.35223
G1 X75.975 Y75.003 E26.69284
G1 X76.544 Y72.880 E26.89276
G1 X78.005 Y71.419 E27.08059
G1 X80.128 Y70.850 E27.28051
G1 X124.025 Y70.850 E31.27203
G1 X124.025 Y129.150 E36.57324
G1 X100.975 Y129.150 E38.66919
G1 X100.975 Y93.975 E41.86764
G1 X100.350 Y94.525 F7800.000
G1 X80.046 Y94.525 E43.71386 F1800.000
G1 X77.681 Y93.891 E43.93649
G1 X75.984 Y92.194 E44.15478
G1 X75.350 Y89.829 E44.37740
G1 X75.350 Y74.921 E45.73297
G1 X75.984 Y72.556 E45.95559
G1 X77.681 Y70.859 E46.17388
G1 X80.046 Y70.225 E46.39651
G1 X124.650 Y70.225 E50.45232
G1 X124.650 Y129.775 E55.86718
G1 X100.350 Y129.775 E58.07677
G1 X100.350 Y94.600 E61.27522
G1 X100.350 Y94.025 F7800.000
G1 X100.936 Y92.897 F7800.000
G1 X79.946 Y71.907 E64.00016 F1800.000
G1 X79.242 Y72.095 E64.06703
G1 X100.044 Y92.897 E66.76750
G1 X99.151 Y92.897 E66.84940
G1 X78.539 Y72.284 E69.52539
G1 X78.078 Y72.715 E69.58334
G1 X98.259 Y92.897 E72.20331
G1 X97.367 Y92.897 E72.28521
G1 X77.632 Y73.161 E74.84728
G1 X77.321 Y73.742 E74.90778
G1 X96.475 Y92.897 E77.39442
G1 X95.583 Y92.897 E77.47632
G1 X77.132 Y74.446 E79.87161
G1 X76.978 Y75.184 E79.94084
G1 X94.691 Y92.897 E82.24028
G1 X93.798 Y92.897 E82.32218
G1 X76.978 Y76.077 E84.50580
G1 X76.978 Y76.969 E84.58770
G1 X92.906 Y92.897 E86.65549
G1 X92.014 Y92.897 E86.73739
G1 X76.978 Y77.861 E88.68936
G1 X76.978 Y78.753 E88.77126
G1 X91.122 Y92.897 E90.60741
G1 X90.230 Y92.897 E90.68931
G1 X76.978 Y79.645 E92.40964
G1 X76.978 Y80.537 E92.49154
G1 X89.338 Y92.897 E94.09604
G1 X88.445 Y92.897 E94.17794
G1 X76.978 Y81.430 E95.66662
G1 X76.978 Y82.322 E95.74852
G1 X87.553 Y92.897 E97.12138
G1 X86.661 Y92.897 E97.20328
G1 X76.978 Y83.214 E98.46031
G1 X76.978 Y84.106 E98.54221
G1 X85.769 Y92.897 E99.68342
G1 X84.877 Y92.897 E99.76532
G1 X76.978 Y84.998 E100.79071
G1 X76.978 Y85.890 E100.87261
G1 X83.985 Y92.897 E101.78217
G1 X83.092 Y92.897 E101.86407
G1 X76.978 Y86.783 E102.65782
G1 X76.978 Y87.675 E102.73972
G1 X82.200 Y92.897 E103.41764
G1 X81.308 Y92.897 E103.49953
G1 X76.978 Y88.567 E104.06163
G1 X76.978 Y89.459 E104.14353
G1 X80.416 Y92.897 E104.58980
G1 X79.199 Y92.572 E104.70540
G1 X77.303 Y90.676 E104.95159
G1 X87.922 Y71.853 F7800.000
G1 X123.022 Y106.953 E109.50829 F1800.000
G1 X123.022 Y107.845 E109.59019
G1 X87.030 Y71.853 E114.26272
G1 X86.138 Y71.853 E114.34462
G1 X123.022 Y108.737 E119.13297
G1 X123.022 Y109.629 E119.21487
G1 X85.245 Y71.853 E124.11905
G1 X84.353 Y71.853 E124.20095
G1 X123.022 Y110.522 E129.22095
G1 X123.022 Y111.414 E129.30284
G1 X83.461 Y71.853 E134.43867
G1 X82.569 Y71.853 E134.52057
G1 X123.022 Y112.306 E139.77221
G1 X123.022 Y113.198 E139.85411
G1 X81.677 Y71.853 E145.22158
G1 X80.785 Y71.853 E145.30348
G1 X123.022 Y114.090 E150.78677
G1 X123.022 Y114.983 E150.86867
G1 X101.978 Y93.939 E153.60055
G1 X101.978 Y94.831 E153.68245
G1 X123.022 Y115.875 E156.41433
G1 X123.022 Y116.767 E156.49623
G1 X101.978 Y95.724 E159.22811
G1 X101.978 Y96.616 E159.31001
G1 X123.022 Y117.659 E162.04189
G1 X123.022 Y118.551 E162.12379
G1 X101.978 Y97.508 E164.85568
G1 X101.978 Y98.400 E164.93757
G1 X123.022 Y119.443 E167.66946
G1 X123.022 Y120.336 E167.75136
G1 X101.978 Y99.292 E170.48324
G1 X101.978 Y100.184 E170.56514
G1 X123.022 Y121.228 E173.29702
G1 X123.022 Y122.120 E173.37892
G1 X101.978 Y101.077 E176.11080
G1 X101.978 Y101.969 E176.19270
G1 X123.022 Y123.012 E178.92458
G1 X123.022 Y123.904 E179.00648
G1 X101.978 Y102.861 E181.73837
G1 X101.978 Y103.753 E181.82027
G1 X123.022 Y124.796 E184.55215
G1 X123.022 Y125.689 E184.63405
G1 X101.978 Y104.645 E187.36593
G1 X101.978 Y105.537 E187.44783
G1 X123.022 Y126.581 E190.17971
G1 X123.022 Y127.473 E190.26161
G1 X101.978 Y106.430 E192.99349
G1 X101.978 Y107.322 E193.07539
G1 X122.803 Y128.147 E195.77893
G1 X121.911 Y128.147 E195.86082
G1 X101.978 Y108.214 E198.44854
G1 X101.978 Y109.106 E198.53043
G1 X121.019 Y128.147 E201.00232
G1 X120.127 Y128.147 E201.08422
G1 X101.978 Y109.998 E203.44029
G1 X101.978 Y110.890 E203.52218
G1 X119.235 Y128.147 E205.76243
G1 X118.342 Y128.147 E205.84433
G1 X101.978 Y111.783 E207.96874
G1 X101.978 Y112.675 E208.05064
G1 X117.450 Y128.147 E210.05924
G1 X116.558 Y128.147 E210.14114
G1 X101.978 Y113.567 E212.03391
G1 X101.978 Y114.459 E212.11581
G1 X115.666 Y128.147 E213.89276
G1 X114.774 Y128.147 E213.97466
G1 X101.978 Y115.351 E215.63579
G1 X101.978 Y116.243 E215.71768
G1 X113.882 Y128.147 E217.26299
G1 X112.989 Y128.147 E217.34489
G1 X101.978 Y117.136 E218.77437
G1 X101.978 Y118.028 E218.85627
G1 X112.097 Y128.147 E220.16993
G1 X111.205 Y128.147 E220.25182
G1 X101.978 Y118.920 E221.44966
G1 X101.978 Y119.812 E221.53156
G1 X110.313 Y128.147 E222.61357
G1 X109.421 Y128.147 E222.69547
G1 X101.978 Y120.704 E223.66166
G1 X101.978 Y121.596 E223.74356
G1 X108.529 Y128.147 E224.59392
G1 X107.636 Y128.147 E224.67582
G1 X101.978 Y122.489 E225.41037
G1 X101.978 Y123.381 E225.49226
G1 X106.744 Y128.147 E226.11098
G1 X105.852 Y128.147 E226.19288
G1 X101.978 Y124.273 E226.69578
G1 X101.978 Y125.165 E226.77768
G1 X104.960 Y128.147 E227.16475
G1 X104.068 Y128.147 E227.24665
G1 X101.978 Y126.057 E227.51790
G1 X101.978 Y126.949 E227.59980
G1 X103.176 Y128.147 E227.75523
G1 X102.283 Y128.147 E227.83713
G1 X101.978 Y127.842 E227.87673
G1 X123.022 Y93.570 F7800.000
G1 X109.916 Y80.465 E229.57814 F1800.000
G1 X110.547 Y81.988 F7800.000
G1 X123.022 Y94.463 E231.19765 F1800.000
G1 X123.022 Y95.355 E231.27955
G1 X110.435 Y82.768 E232.91362
G1 X110.173 Y83.399 E232.97630
G1 X123.022 Y96.247 E234.64429
G1 X123.022 Y97.139 E234.72619
G1 X109.912 Y84.030 E236.42811
G1 X109.651 Y84.660 E236.49079
G1 X123.022 Y98.031 E238.22663
G1 X123.022 Y98.923 E238.30853
G1 X109.389 Y85.291 E240.07830
G1 X108.955 Y85.749 F7800.000
G1 X123.022 Y99.816 E241.90452 F1800.000
G1 X123.022 Y100.708 E241.98641
G1 X108.324 Y86.010 E243.89453
G1 X107.693 Y86.271 E243.95722
G1 X123.022 Y101.600 E245.94723
G1 X123.022 Y102.492 E246.02913
G1 X107.062 Y86.532 E248.10105
G1 X106.431 Y86.794 E248.16373
G1 X123.022 Y103.384 E250.31755
G1 X123.022 Y104.276 E250.39945
G1 X105.705 Y86.960 E252.64750
G1 X104.182 Y86.329 F7800.000
G1 X123.022 Y105.169 E255.09327 F1800.000
G1 X123.022 Y106.061 E255.17517
G1 X88.814 Y71.853 E259.61606
G1 X89.706 Y71.853 E259.69795
G1 X102.046 Y84.193 E261.29988
G1 X101.415 Y82.670 F7800.000
G1 X90.599 Y71.853 E262.70409 F1800.000
G1 X91.491 Y71.853 E262.78599
G1 X101.581 Y81.944 E264.09596
G1 X101.843 Y81.313 E264.15865
G1 X92.383 Y71.853 E265.38672
G1 X93.275 Y71.853 E265.46862
G1 X102.104 Y80.682 E266.61479
G1 X102.365 Y80.051 E266.67748
G1 X94.167 Y71.853 E267.74175
G1 X95.059 Y71.853 E267.82365
G1 X102.626 Y79.420 E268.80603
G1 X103.084 Y78.986 F7800.000
G1 X95.952 Y71.853 E269.73195 F1800.000
G1 X96.844 Y71.853 E269.81385
G1 X103.715 Y78.724 E270.70584
G1 X104.345 Y78.463 E270.76853
G1 X97.736 Y71.853 E271.62660
G1 X98.628 Y71.853 E271.70850
G1 X104.976 Y78.202 E272.53265
G1 X105.607 Y77.940 E272.59533
G1 X99.520 Y71.853 E273.38556
G1 X100.412 Y71.853 E273.46745
G1 X106.387 Y77.828 E274.24312
G1 X107.910 Y78.459 F7800.000
G1 X101.305 Y71.853 E275.10068 F1800.000
G1 X115.406 Y85.063 F7800.000
G1 X102.197 Y71.853 E276.81556 F1800.000
G1 X103.089 Y71.853 E276.89746
G1 X114.775 Y83.540 E278.41462
G1 X114.432 Y82.304 E278.53234
G1 X103.981 Y71.853 E279.88909
G1 X104.873 Y71.853 E279.97099
G1 X114.693 Y81.673 E281.24585
G1 X114.955 Y81.043 E281.30854
G1 X105.765 Y71.853 E282.50150
G1 X106.658 Y71.853 E282.58340
G1 X115.216 Y80.412 E283.69446
G1 X115.477 Y79.781 E283.75714
G1 X107.550 Y71.853 E284.78630
G1 X108.442 Y71.853 E284.86820
G1 X115.738 Y79.150 E285.81546
G1 X116.354 Y78.874 E285.87742
G1 X109.334 Y71.853 E286.78880
G1 X110.226 Y71.853 E286.87070
G1 X116.985 Y78.612 E287.74815
G1 X117.616 Y78.351 E287.81083
G1 X111.118 Y71.853 E288.65436
G1 X112.011 Y71.853 E288.73626
G1 X118.247 Y78.090 E289.54587
G1 X118.878 Y77.828 E289.60855
G1 X112.903 Y71.853 E290.38423
G1 X113.795 Y71.853 E290.46613
G1 X120.040 Y78.099 E291.27691
G1 X121.563 Y78.730 F7800.000
G1 X114.687 Y71.853 E292.16959 F1800.000
G1 X115.579 Y71.853 E292.25149
G1 X122.710 Y78.984 E293.17717
G1 X123.022 Y78.404 E293.23764
G1 X116.471 Y71.853 E294.08801
G1 X117.364 Y71.853 E294.16991
G1 X123.022 Y77.511 E294.90446
G1 X123.022 Y76.619 E294.98636
G1 X118.256 Y71.853 E295.60509
G1 X119.148 Y71.853 E295.68699
G1 X123.022 Y75.727 E296.18989
G1 X123.022 Y74.835 E296.27179
G1 X120.040 Y71.853 E296.65887
G1 X120.932 Y71.853 E296.74077
G1 X123.022 Y73.943 E297.01202
G1 X123.022 Y73.051 E297.09392
G1 X121.824 Y71.853 E297.24936
G1 X122.717 Y71.853 E297.33126
G1 X123.022 Y72.158 E297.37087
G1 X122.332 Y85.744 F7800.000
G1 X123.022 Y86.433 E297.46035 F1800.000
G1 X123.022 Y87.325 E297.54224
G1 X121.594 Y85.898 E297.72756
G1 X120.963 Y86.159 E297.79025
G1 X123.022 Y88.217 E298.05746
G1 X123.022 Y89.110 E298.13936
G1 X120.332 Y86.420 E298.48848
G1 X119.702 Y86.682 E298.55116
G1 X123.022 Y90.002 E298.98218
G1 X123.022 Y90.894 E299.06408
G1 X119.071 Y86.943 E299.57700
G1 X117.835 Y86.600 E299.69471
G1 X123.022 Y91.786 E300.36803
G1 X123.022 Y92.678 E300.44993
G1 X116.312 Y85.969 E301.32096
G1 E299.32096 F2400.00000
G92 E0
G1 X123.071 Y81.126 F7800.000
G1 E2.00000 F2400.00000
G1 X122.716 Y79.345 E2.16519 F1800.000
G1 X123.071 Y83.624 F7800.000
G1 X122.716 Y85.405 E2.33037 F1800.000
G1 Z0.650 F7800.000
G1 X116.123 Y85.252 F7800.000
G1 X114.931 Y82.375 E2.58460 F900.000
G1 X116.123 Y79.498 E2.83882
G1 X116.854 Y79.195 E2.90346
G1 X119.000 Y78.306 E3.09305 F900.000
G1 X121.877 Y79.498 E3.34728
G1 X123.069 Y82.375 E3.60150
G1 X121.877 Y85.252 E3.85573
G1 X119.000 Y86.444 E4.10996
G1 X116.192 Y85.281 E4.35806
G1 X116.624 Y84.751 F7800.000
G1 X115.639 Y82.375 E4.56802 F900.000
G1 X116.624 Y79.999 E4.77799
G1 X117.105 Y79.799 E4.82049
G1 X119.000 Y79.014 E4.98795 F900.000
G1 X121.376 Y79.999 E5.19792
G1 X122.361 Y82.375 E5.40788
G1 X121.376 Y84.751 E5.61785
G1 X119.000 Y85.736 E5.82781
G1 X116.693 Y84.780 E6.03165
G1 X117.041 Y84.334 F7800.000
G1 X116.229 Y82.375 E6.14687 F900.000
G1 X117.041 Y80.416 E6.26208
G1 X117.313 Y80.303 E6.27810
G1 X119.000 Y79.604 E6.37730 F900.000
G1 X120.959 Y80.416 E6.49251
G1 X121.771 Y82.375 E6.60772
G1 X120.959 Y84.334 E6.72294
G1 X119.000 Y85.146 E6.83815
G1 X117.110 Y84.363 E6.94929
G1 X116.545 Y84.399 F7800.000
G1 X110.069 Y82.375 F7800.000
G1 X108.877 Y85.252 E7.20352 F900.000
G1 X106.000 Y86.444 E7.45774
G1 X103.123 Y85.252 E7.71197
G1 X101.931 Y82.375 E7.96620
G1 X103.123 Y79.498 E8.22042 F900.000
G1 X106.000 Y78.306 E8.47465
G1 X108.877 Y79.498 E8.72888
G1 X110.040 Y82.306 E8.97698
G1 X109.361 Y82.375 F7800.000
G1 X108.376 Y84.751 E9.18694 F900.000
G1 X106.000 Y85.736 E9.39691
G1 X103.624 Y84.751 E9.60687
G1 X102.639 Y82.375 E9.81684
G1 X103.624 Y79.999 E10.02680
G1 X104.105 Y79.799 E10.06931
G1 X106.000 Y79.014 E10.23677 F900.000
G1 X108.376 Y79.999 E10.44673
G1 X109.332 Y82.306 E10.65057
G1 X108.771 Y82.375 F7800.000
G1 X107.959 Y84.334 E10.76579 F900.000
G1 X106.000 Y85.146 E10.88100
G1 X104.041 Y84.334 E10.99622
G1 X103.229 Y82.375 E11.11143
G1 X104.041 Y80.416 E11.22665 F900.000
G1 X106.000 Y79.604 E11.34186
G1 X107.959 Y80.416 E11.45707
G1 X108.742 Y82.306 E11.56821
G1 X109.167 Y82.679 F7800.000
G1 E9.56821 F2400.00000
G92 E0
G1 X101.450 Y93.425 F7800.000
G1 E2.00000 F2400.00000
G1 X80.191 Y93.425 E3.73541 F3600.000
G1 X78.250 Y92.905 E3.89940
G1 X76.970 Y91.625 E4.04727
