; generated by Slic3r 1.2.9 on 2017-09-26 at 15:32:15

; external perimeters extrusion width = 0.50mm
; perimeters extrusion width = 0.72mm
; infill extrusion width = 0.72mm
; solid infill extrusion width = 0.72mm
; top infill extrusion width = 0.72mm

M107
M104 S200 ; set temperature
G28 ; home all axes
G1 Z5 F5000 ; lift nozzle

M109 S200 ; wait for temperature to be reached
G21 ; set units to millimeters
G90 ; use absolute coordinates
M82 ; use absolute distances for extrusion
G92 E0
G1 Z0.350 F7800.000
G1 E-2.00000 F2400.00000
G92 E0
G1 X101.142 Y65.371 F7800.000
G1 E2.00000 F2400.00000
G1 X102.969 Y63.984 E2.20854 F1800.000
G1 X106.000 Y63.250 E2.49217
G1 X111.000 Y63.250 E2.94681
G1 X113.259 Y63.647 E3.15536
G1 X115.247 Y64.790 E3.36390 F1800.000
G1 X116.726 Y66.543 E3.57244
G1 X117.519 Y68.695 E3.78098
G1 X117.625 Y69.875 E3.88869
G1 X117.625 Y130.125 E9.36720
G1 X117.228 Y132.384 E9.57574
G1 X116.085 Y134.372 E9.78428
G1 X114.332 Y135.851 E9.99283
G1 X112.180 Y136.644 E10.20137
G1 X111.000 Y136.750 E10.30908
G1 X89.000 Y136.750 E12.30953
G1 X86.741 Y136.353 E12.51807
G1 X84.753 Y135.210 E12.72661
G1 X83.274 Y133.457 E12.93516
G1 X82.481 Y131.305 E13.14370
G1 X82.375 Y130.125 E13.25141
G1 X82.375 Y110.125 E15.07000
G1 X82.897 Y107.547 E15.30914
G1 X99.897 Y67.297 E19.28211
G1 X101.101 Y65.434 E19.48383
G1 E17.48383 F2400.00000
G92 E0
G1 X104.906 Y120.125 F7800.000
G1 E2.00000 F2400.00000
G1 X104.014 Y123.453 E2.31330 F1800.000
G1 X101.578 Y125.889 E2.62660
G1 X98.250 Y126.781 E2.93990
G1 X94.922 Y125.889 E3.25319
G1 X92.486 Y123.453 E3.56649
G1 X91.594 Y120.125 E3.87979
G1 X92.487 Y116.793 E4.19347
G1 X94.950 Y114.353 E4.50875
G1 X98.250 Y113.469 E4.81939 F1800.000
G1 X101.578 Y114.361 E5.13268
G1 X104.014 Y116.797 E5.44598
G1 X104.887 Y120.053 E5.75246
G1 X104.259 Y120.125 F7800.000
G1 X103.454 Y123.130 E6.03531 F1800.000
G1 X101.255 Y125.329 E6.31816
G1 X98.250 Y126.134 E6.60101
G1 X95.245 Y125.329 E6.88386
G1 X93.046 Y123.130 E7.16670
G1 X92.241 Y120.125 E7.44955
G1 X93.046 Y117.118 E7.73263
G1 X95.272 Y114.914 E8.01746
G1 X98.250 Y114.116 E8.29780 F1800.000
G1 X101.255 Y114.921 E8.58064
G1 X103.454 Y117.120 E8.86349
G1 X104.240 Y120.053 E9.13952
G1 X103.612 Y120.125 F7800.000
G1 X102.894 Y122.806 E9.39192 F1800.000
G1 X100.931 Y124.769 E9.64432
G1 X98.250 Y125.487 E9.89672
G1 X95.569 Y124.769 E10.14911
G1 X93.606 Y122.806 E10.40151
G1 X92.888 Y120.125 E10.65391
G1 X93.606 Y117.443 E10.90639
G1 X95.594 Y115.474 E11.16077
G1 X98.250 Y114.763 E11.41080 F1800.000
G1 X100.931 Y115.481 E11.66320
G1 X102.894 Y117.444 E11.91560
G1 X103.593 Y120.053 E12.16118
G1 X104.022 Y120.412 F7800.000
G1 X107.600 Y111.725 F7800.000
G1 X107.600 Y71.475 E15.82109 F1800.000
G1 X109.400 Y71.475 E15.98481
G1 X109.400 Y128.525 E21.17238
G1 X90.600 Y128.525 E22.88190
G1 X90.600 Y111.725 E24.40955
G1 X107.525 Y111.725 E25.94854
G1 X106.975 Y111.100 F7800.000
G1 X106.975 Y70.850 E29.60845 F1800.000
G1 X110.025 Y70.850 E29.88581
G1 X110.025 Y129.150 E35.18702
G1 X89.975 Y129.150 E37.01018
G1 X89.975 Y111.100 E38.65148
G1 X106.900 Y111.100 E40.19046
G1 X106.350 Y110.475 F7800.000
G1 X106.350 Y70.225 E43.85038 F1800.000
G1 X110.650 Y70.225 E44.24138
G1 X110.650 Y129.775 E49.65623
G1 X89.350 Y129.775 E51.59303
G1 X89.350 Y110.475 E53.34797
G1 X106.275 Y110.475 E54.88696
G1 X106.850 Y110.475 F7800.000
G1 X99.223 Y112.103 F7800.000
G1 X100.855 Y113.735 E55.09780 F1800.000
G1 X99.641 Y113.409 E55.21261
G1 X98.335 Y112.103 E55.38143
G1 X98.428 Y113.084 E55.47148
G1 X97.447 Y112.103 E55.59828
G1 X96.559 Y112.103 E55.67946
G1 X97.708 Y113.253 E55.82805
G1 X97.008 Y113.441 E55.89433
G1 X95.670 Y112.103 E56.06718
G1 X94.782 Y112.103 E56.14836
G1 X96.307 Y113.628 E56.34547
G1 X95.606 Y113.816 E56.41176
G1 X93.894 Y112.103 E56.63313
G1 X93.006 Y112.103 E56.71431
G1 X94.906 Y114.004 E56.95995
G1 X94.428 Y114.414 E57.01752
G1 X92.117 Y112.103 E57.31622
G1 X91.229 Y112.103 E57.39741
G1 X93.982 Y114.856 E57.75325
G1 X93.536 Y115.298 E57.81065
G1 X90.978 Y112.741 E58.14120
G1 X90.978 Y113.629 E58.22239
G1 X93.089 Y115.740 E58.49525
G1 X92.643 Y116.182 E58.55266
G1 X90.978 Y114.518 E58.76784
G1 X90.978 Y115.406 E58.84903
G1 X92.197 Y116.624 E59.00653
G1 X91.989 Y117.304 E59.07152
G1 X90.978 Y116.294 E59.20209
G1 X90.978 Y117.182 E59.28328
G1 X91.587 Y117.791 E59.36196
G1 X92.102 Y123.636 F7800.000
G1 X90.978 Y122.512 E59.50725 F1800.000
G1 X90.978 Y123.400 E59.58844
G1 X95.725 Y128.147 E60.20194
G1 X94.837 Y128.147 F7800.000
G1 X90.978 Y124.288 E60.70062 F1800.000
G1 X90.978 Y125.177 E60.78181
G1 X93.948 Y128.147 E61.16568
G1 X93.060 Y128.147 E61.24686
G1 X90.978 Y126.065 E61.51592
G1 X90.978 Y126.953 E61.59711
G1 X92.172 Y128.147 E61.75135
G1 X91.283 Y128.147 E61.83254
G1 X90.978 Y127.842 E61.87197
G1 X94.739 Y126.273 F7800.000
G1 X96.613 Y128.147 E62.11420 F1800.000
G1 X97.501 Y128.147 E62.19539
G1 X95.952 Y126.598 E62.39560
G1 X97.166 Y126.923 E62.51041
G1 X98.390 Y128.147 E62.66860
G1 X98.269 Y127.137 E62.76151
G1 X99.278 Y128.147 E62.89197
G1 X100.166 Y128.147 E62.97315
G1 X98.969 Y126.950 E63.12787
G1 X99.670 Y126.762 E63.19416
G1 X101.054 Y128.147 E63.37315
G1 X101.943 Y128.147 E63.45433
G1 X100.370 Y126.574 E63.65758
G1 X101.071 Y126.386 E63.72387
G1 X102.831 Y128.147 E63.95138
G1 X103.719 Y128.147 E64.03256
G1 X101.749 Y126.176 E64.28723
G1 X102.193 Y125.732 E64.34464
G1 X104.607 Y128.147 E64.65671
G1 X105.496 Y128.147 E64.73790
G1 X102.637 Y125.288 E65.10738
G1 X103.081 Y124.844 E65.16478
G1 X106.384 Y128.147 E65.59167
G1 X107.272 Y128.147 E65.67286
G1 X103.525 Y124.400 E66.15715
G1 X103.970 Y123.956 E66.21456
G1 X108.161 Y128.147 E66.75626
G1 X109.015 Y128.113 E66.83443
G1 X104.371 Y123.469 E67.43469
G1 X104.559 Y122.769 E67.50098
G1 X109.022 Y127.231 E68.07780
G1 X109.022 Y126.343 E68.15898
G1 X104.747 Y122.068 E68.71154
G1 X104.934 Y121.367 E68.77783
G1 X109.022 Y125.455 E69.30613
G1 X109.022 Y124.566 E69.38731
G1 X105.122 Y120.667 E69.89135
G1 X105.291 Y119.947 E69.95891
G1 X109.022 Y123.678 E70.44115
G1 X109.022 Y122.790 E70.52234
G1 X104.966 Y118.734 E71.04661
G1 X104.640 Y117.520 E71.16142
G1 X109.022 Y121.902 E71.72771
G1 X109.022 Y121.013 E71.80890
G1 X100.112 Y112.103 E72.96055
G1 X101.000 Y112.103 E73.04174
G1 X109.022 Y120.125 E74.07858
G1 X109.022 Y119.237 E74.15976
G1 X101.888 Y112.103 E75.08179
G1 X102.777 Y112.103 E75.16298
G1 X109.022 Y118.348 E75.97019
G1 X109.022 Y117.460 E76.05138
G1 X103.665 Y112.103 E76.74378
G1 X104.553 Y112.103 E76.82497
G1 X109.022 Y116.572 E77.40256
G1 X109.022 Y115.684 E77.48374
G1 X105.441 Y112.103 E77.94652
G1 X106.330 Y112.103 E78.02770
G1 X109.022 Y114.795 E78.37567
G1 X109.022 Y113.907 E78.45685
G1 X107.218 Y112.103 E78.69000
G1 X107.978 Y111.976 E78.76048
G1 X109.022 Y113.019 E78.89533
G1 X109.022 Y112.131 E78.97652
G1 X107.978 Y111.087 E79.11137
G1 X107.978 Y110.199 E79.19255
G1 X109.022 Y111.242 E79.32740
G1 X109.022 Y110.354 E79.40859
G1 X107.978 Y109.311 E79.54344
G1 X107.978 Y108.423 E79.62463
G1 X109.022 Y109.466 E79.75948
G1 X109.022 Y108.578 E79.84066
G1 X107.978 Y107.534 E79.97551
G1 X107.978 Y106.646 E80.05670
G1 X109.022 Y107.689 E80.19155
G1 X109.022 Y106.801 E80.27273
G1 X107.978 Y105.758 E80.40758
G1 X107.978 Y104.869 E80.48877
G1 X109.022 Y105.913 E80.62362
G1 X109.022 Y105.024 E80.70480
G1 X107.978 Y103.981 E80.83965
G1 X107.978 Y103.093 E80.92084
G1 X109.022 Y104.136 E81.05569
G1 X109.022 Y103.248 E81.13687
G1 X107.978 Y102.205 E81.27173
G1 X107.978 Y101.316 E81.35291
G1 X109.022 Y102.360 E81.48776
G1 X109.022 Y101.471 E81.56895
G1 X107.978 Y100.428 E81.70380
G1 X107.978 Y99.540 E81.78498
G1 X109.022 Y100.583 E81.91983
G1 X109.022 Y99.695 E82.00102
G1 X107.978 Y98.652 E82.13587
G1 X107.978 Y97.763 E82.21705
G1 X109.022 Y98.807 E82.35190
G1 X109.022 Y97.918 E82.43309
G1 X107.978 Y96.875 E82.56794
G1 X107.978 Y95.987 E82.64913
G1 X109.022 Y97.030 E82.78398
G1 X109.022 Y96.142 E82.86516
G1 X107.978 Y95.098 E83.00001
G1 X107.978 Y94.210 E83.08120
G1 X109.022 Y95.253 E83.21605
G1 X109.022 Y94.365 E83.29723
G1 X107.978 Y93.322 E83.43208
G1 X107.978 Y92.434 E83.51327
G1 X109.022 Y93.477 E83.64812
G1 X109.022 Y92.589 E83.72930
G1 X107.978 Y91.545 E83.86415
G1 X107.978 Y90.657 E83.94534
G1 X109.022 Y91.700 E84.08019
G1 X109.022 Y90.812 E84.16138
G1 X107.978 Y89.769 E84.29623
G1 X107.978 Y88.881 E84.37741
G1 X109.022 Y89.924 E84.51226
G1 X109.022 Y89.036 E84.59345
G1 X107.978 Y87.992 E84.72830
G1 X107.978 Y87.104 E84.80948
G1 X109.022 Y88.147 E84.94433
G1 X109.022 Y87.259 E85.02552
G1 X107.978 Y86.216 E85.16037
G1 X107.978 Y85.327 E85.24155
G1 X109.022 Y86.371 E85.37640
G1 X109.022 Y85.483 E85.45759
G1 X107.978 Y84.439 E85.59244
G1 X107.978 Y83.551 E85.67363
G1 X109.022 Y84.594 E85.80848
G1 X109.022 Y83.706 E85.88966
G1 X107.978 Y82.663 E86.02451
G1 X107.978 Y81.774 E86.10570
G1 X109.022 Y82.818 E86.24055
G1 X109.022 Y81.929 E86.32173
G1 X107.978 Y80.886 E86.45658
G1 X107.978 Y79.998 E86.53777
G1 X109.022 Y81.041 E86.67262
G1 X109.022 Y80.153 E86.75380
G1 X107.978 Y79.110 E86.88865
G1 X107.978 Y78.221 E86.96984
G1 X109.022 Y79.265 E87.10469
G1 X109.022 Y78.376 E87.18588
G1 X107.978 Y77.333 E87.32073
G1 X107.978 Y76.445 E87.40191
G1 X109.022 Y77.488 E87.53676
G1 X109.022 Y76.600 E87.61795
G1 X107.978 Y75.557 E87.75280
G1 X107.978 Y74.668 E87.83398
G1 X109.022 Y75.712 E87.96883
G1 X109.022 Y74.823 E88.05002
G1 X107.978 Y73.780 E88.18487
G1 X107.978 Y72.892 E88.26605
G1 X109.022 Y73.935 E88.40090
G1 X109.022 Y73.047 E88.48209
G1 X107.978 Y72.003 E88.61694
G1 X108.717 Y71.853 E88.68579
G1 X109.022 Y72.158 E88.72522
G1 E86.72522 F2400.00000
G92 E0
G1 X91.347 Y118.160 F7800.000
G1 E2.00000 F2400.00000
G1 X91.095 Y120.075 E2.37231 F1800.000
G1 X91.095 Y120.175 F7800.000
G1 X91.347 Y122.090 E2.74461 F1800.000
G1 Z0.650 F7800.000
G1 E0.74461 F2400.00000
G92 E0
G1 X101.915 Y114.910 F7800.000
G1 E2.00000 F2400.00000
G1 X103.880 Y116.875 E2.22682 F900.000
G1 X104.751 Y120.125 E2.50151
G1 X103.880 Y123.375 E2.77621
G1 X101.500 Y125.755 E3.05090
G1 X98.250 Y126.626 E3.32560
G1 X95.000 Y125.755 E3.60029
G1 X92.620 Y123.375 E3.87498
G1 X91.749 Y120.125 E4.14968
G1 X92.620 Y116.875 E4.42437
G1 X95.000 Y114.495 E4.69907
G1 X95.444 Y114.376 E4.73664
G1 X98.250 Y113.624 E4.97376 F900.000
G1 X101.500 Y114.495 E5.24846
G1 X101.862 Y114.857 E5.29021
G1 X101.452 Y115.373 F7800.000
G1 X103.293 Y117.213 E5.50271 F900.000
G1 X104.073 Y120.125 E5.74877
G1 X103.293 Y123.037 E5.99484
G1 X101.162 Y125.168 E6.24090
G1 X98.250 Y125.948 E6.48696
G1 X95.338 Y125.168 E6.73302
G1 X93.207 Y123.037 E6.97909
G1 X92.427 Y120.125 E7.22515
G1 X93.207 Y117.213 E7.47121
G1 X95.338 Y115.082 E7.71727
G1 X95.614 Y115.008 E7.74053
G1 X98.250 Y114.302 E7.96333 F900.000
G1 X101.162 Y115.082 E8.20940
G1 X101.399 Y115.320 E8.23683
G1 X101.067 Y115.758 F7800.000
G1 X102.804 Y117.496 E8.37034 F900.000
G1 X103.509 Y120.125 E8.51824
G1 X102.804 Y122.754 E8.66614
G1 X100.879 Y124.679 E8.81404
G1 X98.250 Y125.384 E8.96195
G1 X95.621 Y124.679 E9.10985
G1 X93.696 Y122.754 E9.25775
G1 X92.991 Y120.125 E9.40566
G1 X93.696 Y117.496 E9.55356
G1 X95.621 Y115.571 E9.70146
G1 X95.755 Y115.535 E9.70901
G1 X98.250 Y114.866 E9.84937 F900.000
G1 X100.879 Y115.571 E9.99727
G1 X101.014 Y115.705 E10.00760
G1 X101.550 Y115.629 F7800.000
G1 X107.450 Y111.575 F7800.000
G1 X107.450 Y71.325 E13.29331 F3600.000
G1 X109.550 Y71.325 E13.46481
G1 X109.550 Y128.675 E18.14652
G1 X90.450 Y128.675 E19.70577
G1 X90.450 Y111.575 E21.10176
G1 X107.375 Y111.575 E22.48339
G1 X106.795 Y110.920 F7800.000
G1 X106.795 Y70.670 E25.76911 F3600.000
G1 X110.205 Y70.670 E26.04747
G1 X110.205 Y129.330 E30.83603
G1 X89.795 Y129.330 E32.50214
G1 X89.795 Y110.920 E34.00499
G1 X106.720 Y110.920 E35.38662
G1 X106.250 Y110.375 F7800.000
G1 X106.250 Y70.125 E37.57352 F1800.000
G1 X110.750 Y70.125 E37.81802
G1 X110.750 Y129.875 E41.06441
G1 X89.250 Y129.875 E42.23256
G1 X89.250 Y110.375 E43.29205
G1 X106.175 Y110.375 E44.21164
G1 X106.750 Y110.375 F7800.000
G1 X107.847 Y110.503 F7800.000
G1 X109.153 Y109.197 E44.36445 F1200.000
G1 X109.153 Y108.259 E44.44207
G1 X107.847 Y109.565 E44.59488
G1 X107.847 Y108.627 E44.67250
G1 X109.153 Y107.321 E44.82531
G1 X109.153 Y106.383 E44.90293
G1 X107.847 Y107.689 E45.05574
G1 X107.847 Y106.751 E45.13336
G1 X109.153 Y105.445 E45.28617
G1 X109.153 Y104.507 E45.36379
G1 X107.847 Y105.813 E45.51660
G1 X107.847 Y104.875 E45.59422
G1 X109.153 Y103.569 E45.74703
G1 X109.153 Y102.630 E45.82465
G1 X107.847 Y103.936 E45.97746
G1 X107.847 Y102.998 E46.05509
G1 X109.153 Y101.692 E46.20790
G1 X109.153 Y100.754 E46.28552
G1 X107.847 Y102.060 E46.43833
G1 X107.847 Y101.122 E46.51595
G1 X109.153 Y99.816 E46.66876
G1 X109.153 Y98.878 E46.74638
G1 X107.847 Y100.184 E46.89919
G1 X107.847 Y99.246 E46.97681
G1 X109.153 Y97.940 E47.12962
G1 X109.153 Y97.002 E47.20724
G1 X107.847 Y98.308 E47.36005
G1 X107.847 Y97.369 E47.43767
G1 X109.153 Y96.064 E47.59048
G1 X109.153 Y95.125 E47.66810
G1 X107.847 Y96.431 E47.82091
G1 X107.847 Y95.493 E47.89853
G1 X109.153 Y94.187 E48.05134
G1 X109.153 Y93.249 E48.12897
G1 X107.847 Y94.555 E48.28178
G1 X107.847 Y93.617 E48.35940
G1 X109.153 Y92.311 E48.51221
G1 X109.153 Y91.373 E48.58983
G1 X107.847 Y92.679 E48.74264
G1 X107.847 Y91.741 E48.82026
G1 X109.153 Y90.435 E48.97307
G1 X109.153 Y89.497 E49.05069
G1 X107.847 Y90.802 E49.20350
G1 X107.847 Y89.864 E49.28112
G1 X109.153 Y88.558 E49.43393
G1 X109.153 Y87.620 E49.51155
G1 X107.847 Y88.926 E49.66436
G1 X107.847 Y87.988 E49.74198
G1 X109.153 Y86.682 E49.89479
G1 X109.153 Y85.744 E49.97241
G1 X107.847 Y87.050 E50.12523
G1 X107.847 Y86.112 E50.20285
G1 X109.153 Y84.806 E50.35566
G1 X109.153 Y83.868 E50.43328
G1 X107.847 Y85.174 E50.58609
G1 X107.847 Y84.235 E50.66371
G1 X109.153 Y82.930 E50.81652
G1 X109.153 Y81.991 E50.89414
G1 X107.847 Y83.297 E51.04695
G1 X107.847 Y82.359 E51.12457
G1 X109.153 Y81.053 E51.27738
G1 X109.153 Y80.115 E51.35500
G1 X107.847 Y81.421 E51.50781
G1 X107.847 Y80.483 E51.58543
G1 X109.153 Y79.177 E51.73824
G1 X109.153 Y78.239 E51.81586
G1 X107.847 Y79.545 E51.96868
G1 X107.847 Y78.607 E52.04630
G1 X109.153 Y77.301 E52.19911
G1 X109.153 Y76.363 E52.27673
G1 X107.847 Y77.669 E52.42954
G1 X107.847 Y76.730 E52.50716
G1 X109.153 Y75.424 E52.65997
G1 X109.153 Y74.486 E52.73759
G1 X107.847 Y75.792 E52.89040
G1 X107.847 Y74.854 E52.96802
G1 X109.153 Y73.548 E53.12083
G1 X109.153 Y72.610 E53.19845
G1 X107.847 Y73.916 E53.35126
G1 X107.847 Y72.978 E53.42888
G1 X109.103 Y71.722 E53.57582
G1 X108.165 Y71.722 E53.65344
G1 X107.847 Y72.040 E53.69061
G1 X107.847 Y111.442 F7800.000
G1 X109.153 Y110.136 E53.84342 F1200.000
G1 X109.153 Y111.074 E53.92104
G1 X103.856 Y116.370 E54.54080
G1 X104.266 Y116.899 E54.59614
G1 X109.153 Y112.012 E55.16801
G1 X109.153 Y112.950 E55.24563
G1 X104.464 Y117.639 E55.79431
G1 X104.662 Y118.379 E55.85769
G1 X109.153 Y113.888 E56.38317
G1 X109.153 Y114.826 E56.46080
G1 X104.860 Y119.119 E56.96308
G1 X105.059 Y119.859 E57.02646
G1 X109.153 Y115.764 E57.50555
G1 X109.153 Y116.703 E57.58317
G1 X105.012 Y120.844 E58.06775
G1 X104.668 Y122.125 E58.17752
G1 X109.153 Y117.641 E58.70228
G1 X109.153 Y118.579 E58.77990
G1 X104.325 Y123.407 E59.34484
G1 X108.835 Y128.278 F7800.000
G1 X109.153 Y127.960 E59.38201 F1200.000
G1 X109.153 Y127.022 E59.45963
G1 X107.897 Y128.278 E59.60657
G1 X106.959 Y128.278 E59.68419
G1 X109.153 Y126.084 E59.94091
G1 X109.153 Y125.146 E60.01853
G1 X106.021 Y128.278 E60.38502
G1 X105.083 Y128.278 E60.46264
G1 X109.153 Y124.208 E60.93890
G1 X109.153 Y123.270 E61.01652
G1 X104.145 Y128.278 E61.60255
