; generated by Slic3r 1.2.9 on 2017-09-26 at 14:09:50

; external perimeters extrusion width = 0.50mm
; perimeters extrusion width = 0.72mm
; infill extrusion width = 0.72mm
; solid infill extrusion width = 0.72mm
; top infill extrusion width = 0.72mm

M107
M104 S200 ; set temperature
G28 ; home all axes
G1 Z5 F5000 ; lift nozzle

M109 S200 ; wait for temperature to be reached
G21 ; set units to millimeters
G90 ; use absolute coordinates
M82 ; use absolute distances for extrusion
G92 E0
G1 Z0.350 F7800.000
G1 E-2.00000 F2400.00000
G92 E0
G1 X85.875 Y98.252 F7800.000
G1 E2.00000 F2400.00000
G1 X106.015 Y80.648 E4.43227 F1800.000
G1 X108.660 Y79.237 E4.70486
G1 X111.035 Y78.601 E4.92845
G1 X113.320 Y78.400 E5.13699
G1 X114.465 Y78.601 E5.24268
G1 X116.840 Y79.237 E5.46625 F1800.000
G1 X118.919 Y80.205 E5.67479
G1 X119.810 Y80.952 E5.78047
G1 X121.548 Y82.690 E6.00405
G1 X122.865 Y84.568 E6.21259
G1 X123.263 Y85.660 E6.31827
G1 X123.899 Y88.035 E6.54185
G1 X124.125 Y89.750 E6.69911
G1 X124.125 Y115.000 E8.99508
G1 X123.728 Y117.259 E9.20362
G1 X122.585 Y119.247 E9.41216
G1 X120.832 Y120.726 E9.62071
G1 X118.680 Y121.519 E9.82925
G1 X117.500 Y121.625 E9.93696
G1 X82.500 Y121.625 E13.11949
G1 X80.241 Y121.228 E13.32804
G1 X78.253 Y120.085 E13.53658
G1 X76.774 Y118.332 E13.74512
G1 X75.981 Y116.180 E13.95366
G1 X75.875 Y115.000 E14.06137
G1 X75.875 Y110.000 E14.51602
G1 X76.272 Y107.741 E14.72456
G1 X78.140 Y105.012 E15.02530
G1 X85.818 Y98.301 E15.95257
G1 E13.95257 F2400.00000
G92 E0
G1 X109.600 Y111.600 F7800.000
G1 E2.00000 F2400.00000
G1 X109.600 Y89.961 E3.96764 F1800.000
G1 X110.071 Y88.203 E4.13309
G1 X111.201 Y87.073 E4.27841
G1 X112.765 Y86.660 E4.42551
G1 X114.297 Y87.071 E4.56972
G1 X115.429 Y88.203 E4.71534
G1 X115.900 Y89.961 E4.88079
G1 X115.900 Y113.400 E7.01214
G1 X84.100 Y113.400 E9.90374
G1 X84.100 Y111.600 E10.06746
G1 X109.525 Y111.600 E12.37934
G1 X108.975 Y110.975 F7800.000
G1 X108.975 Y89.878 E14.29764 F1800.000
G1 X109.510 Y87.880 E14.48579
G1 X110.878 Y86.512 E14.66168
G1 X112.766 Y86.014 E14.83923
G1 X114.620 Y86.510 E15.01378
G1 X115.990 Y87.880 E15.18985
G1 X116.525 Y89.878 E15.37800
G1 X116.525 Y114.025 E17.57366
G1 X83.475 Y114.025 E20.57890
G1 X83.475 Y110.975 E20.85626
G1 X108.900 Y110.975 E23.16814
G1 X108.350 Y110.350 F7800.000
G1 X108.350 Y89.796 E25.03710 F1800.000
G1 X108.950 Y87.556 E25.24796
G1 X110.556 Y85.951 E25.45441
G1 X112.767 Y85.367 E25.66241
G1 X114.944 Y85.950 E25.86729
G1 X116.550 Y87.556 E26.07381
G1 X117.150 Y89.796 E26.28467
G1 X117.150 Y114.650 E28.54463
G1 X82.850 Y114.650 E31.66351
G1 X82.850 Y110.350 E32.05451
G1 X108.275 Y110.350 E34.36640
G1 X108.850 Y110.350 F7800.000
G1 X115.114 Y88.639 F7800.000
G1 X113.861 Y87.386 E34.52991 F1800.000
G1 X112.636 Y87.058 E34.64698
G1 X115.442 Y89.864 E35.01325
G1 X115.522 Y90.840 E35.10366
G1 X111.924 Y87.243 E35.57317
G1 X111.258 Y87.474 E35.63824
G1 X115.522 Y91.737 E36.19473
G1 X115.522 Y92.634 E36.27751
G1 X110.809 Y87.922 E36.89253
G1 X110.381 Y88.391 E36.95113
G1 X115.522 Y93.531 E37.62201
G1 X115.522 Y94.428 E37.70479
G1 X110.192 Y89.098 E38.40041
G1 X110.002 Y89.806 E38.46800
G1 X115.522 Y95.325 E39.18836
G1 X115.522 Y96.222 E39.27113
G1 X109.978 Y90.679 E39.99462
G1 X109.978 Y91.576 E40.07740
G1 X115.522 Y97.119 E40.80089
G1 X115.522 Y98.016 E40.88367
G1 X109.978 Y92.473 E41.60716
G1 X109.978 Y93.370 E41.68994
G1 X115.522 Y98.913 E42.41343
G1 X115.522 Y99.810 E42.49620
G1 X109.978 Y94.267 E43.21969
G1 X109.978 Y95.164 E43.30247
G1 X115.522 Y100.707 E44.02596
G1 X115.522 Y101.604 E44.10874
G1 X109.978 Y96.060 E44.83223
G1 X109.978 Y96.957 E44.91501
G1 X115.522 Y102.501 E45.63850
G1 X115.522 Y103.398 E45.72127
G1 X109.978 Y97.854 E46.44476
G1 X109.978 Y98.751 E46.52754
G1 X115.522 Y104.295 E47.25103
G1 X115.522 Y105.191 E47.33381
G1 X109.978 Y99.648 E48.05730
G1 X109.978 Y100.545 E48.14008
G1 X115.522 Y106.088 E48.86356
G1 X115.522 Y106.985 E48.94634
G1 X109.978 Y101.442 E49.66983
G1 X109.978 Y102.339 E49.75261
G1 X115.522 Y107.882 E50.47610
G1 X115.522 Y108.779 E50.55888
G1 X109.978 Y103.236 E51.28237
G1 X109.978 Y104.133 E51.36514
G1 X115.522 Y109.676 E52.08863
G1 X115.522 Y110.573 E52.17141
G1 X109.978 Y105.030 E52.89490
G1 X109.978 Y105.927 E52.97768
G1 X115.522 Y111.470 E53.70117
G1 X115.522 Y112.367 E53.78395
G1 X109.978 Y106.824 E54.50744
G1 X109.978 Y107.721 E54.59021
G1 X115.279 Y113.022 E55.28208
G1 X114.382 Y113.022 E55.36486
G1 X109.978 Y108.618 E55.93966
G1 X109.978 Y109.515 E56.02244
G1 X113.485 Y113.022 E56.48017
G1 X112.589 Y113.022 E56.56295
G1 X109.978 Y110.411 E56.90362
G1 X109.978 Y111.308 E56.98640
G1 X111.692 Y113.022 E57.21001
G1 X110.795 Y113.022 E57.29278
G1 X109.751 Y111.978 E57.42895
G1 X108.854 Y111.978 E57.51173
G1 X109.898 Y113.022 E57.64790
G1 X109.001 Y113.022 E57.73067
G1 X107.957 Y111.978 E57.86684
G1 X107.061 Y111.978 E57.94962
G1 X108.104 Y113.022 E58.08578
G1 X107.207 Y113.022 E58.16856
G1 X106.164 Y111.978 E58.30473
G1 X105.267 Y111.978 E58.38750
G1 X106.310 Y113.022 E58.52367
G1 X105.413 Y113.022 E58.60645
G1 X104.370 Y111.978 E58.74262
G1 X103.473 Y111.978 E58.82539
G1 X104.516 Y113.022 E58.96156
G1 X103.619 Y113.022 E59.04434
G1 X102.576 Y111.978 E59.18050
G1 X101.679 Y111.978 E59.26328
G1 X102.722 Y113.022 E59.39945
G1 X101.825 Y113.022 E59.48223
G1 X100.782 Y111.978 E59.61839
G1 X99.885 Y111.978 E59.70117
G1 X100.928 Y113.022 E59.83734
G1 X100.031 Y113.022 E59.92011
G1 X98.988 Y111.978 E60.05628
G1 X98.091 Y111.978 E60.13906
G1 X99.134 Y113.022 E60.27522
G1 X98.238 Y113.022 E60.35800
G1 X97.194 Y111.978 E60.49417
G1 X96.297 Y111.978 E60.57695
G1 X97.341 Y113.022 E60.71311
G1 X96.444 Y113.022 E60.79589
G1 X95.400 Y111.978 E60.93206
G1 X94.503 Y111.978 E61.01483
G1 X95.547 Y113.022 E61.15100
G1 X94.650 Y113.022 E61.23378
G1 X93.606 Y111.978 E61.36995
G1 X92.710 Y111.978 E61.45272
G1 X93.753 Y113.022 E61.58889
G1 X92.856 Y113.022 E61.67167
G1 X91.813 Y111.978 E61.80783
G1 X90.916 Y111.978 E61.89061
G1 X91.959 Y113.022 E62.02678
G1 X91.062 Y113.022 E62.10956
G1 X90.019 Y111.978 E62.24572
G1 X89.122 Y111.978 E62.32850
G1 X90.165 Y113.022 E62.46467
G1 X89.268 Y113.022 E62.54744
G1 X88.225 Y111.978 E62.68361
G1 X87.328 Y111.978 E62.76639
G1 X88.371 Y113.022 E62.90256
G1 X87.474 Y113.022 E62.98533
G1 X86.431 Y111.978 E63.12150
G1 X85.534 Y111.978 E63.20428
G1 X86.577 Y113.022 E63.34044
G1 X85.680 Y113.022 E63.42322
G1 X84.637 Y111.978 E63.55939
G1 X84.478 Y112.717 E63.62907
G1 X84.783 Y113.022 E63.66889
G1 Z0.650 F7800.000
G1 X109.450 Y111.450 F7800.000
G1 X109.450 Y89.941 E65.42471 F3600.000
G1 X109.936 Y88.125 E65.57814
G1 X111.125 Y86.936 E65.71544
G1 X112.750 Y86.501 E65.85274
G1 X114.375 Y86.936 E65.99005
G1 X115.564 Y88.125 E66.12735
G1 X116.050 Y89.941 E66.28078
G1 X116.050 Y113.550 E68.20810
G1 X83.950 Y113.550 E70.82858
G1 X83.950 Y111.450 E71.00008
G1 X109.375 Y111.450 E73.07559
G1 X108.795 Y110.795 F7800.000
G1 X108.795 Y89.855 E74.78501 F3600.000
G1 X109.349 Y87.787 E74.95979
G1 X110.787 Y86.349 E75.12573
G1 X112.750 Y85.823 E75.29166
G1 X114.713 Y86.349 E75.45760
G1 X116.151 Y87.787 E75.62353
G1 X116.705 Y89.855 E75.79831
G1 X116.705 Y114.205 E77.78609
G1 X83.295 Y114.205 E80.51343
G1 X83.295 Y110.795 E80.79179
G1 X108.720 Y110.795 E82.86730
G1 X108.250 Y110.250 F7800.000
G1 X108.250 Y89.783 E83.97933 F1800.000
G1 X108.861 Y87.504 E84.10750
G1 X110.504 Y85.861 E84.23381
G1 X112.750 Y85.259 E84.36012
G1 X114.996 Y85.861 E84.48644
G1 X116.639 Y87.504 E84.61275
G1 X117.250 Y89.783 E84.74091
G1 X117.250 Y114.750 E86.09745
G1 X82.750 Y114.750 E87.97193
G1 X82.750 Y110.250 E88.21643
G1 X108.175 Y110.250 E89.59784
G1 X108.750 Y110.250 F7800.000
G1 X109.847 Y111.117 F7800.000
G1 X115.653 Y105.311 E90.27890 F1200.000
G1 X115.653 Y104.371 E90.35691
G1 X109.847 Y110.177 E91.03796
G1 X109.847 Y109.236 E91.11597
G1 X115.653 Y103.430 E91.79703
G1 X115.653 Y102.490 E91.87504
G1 X109.847 Y108.296 E92.55609
G1 X109.847 Y107.355 E92.63410
G1 X115.653 Y101.549 E93.31516
G1 X115.653 Y100.609 E93.39317
G1 X109.847 Y106.415 E94.07422
G1 X109.847 Y105.474 E94.15223
G1 X115.653 Y99.668 E94.83329
G1 X115.653 Y98.728 E94.91129
G1 X109.847 Y104.534 E95.59235
G1 X109.847 Y103.593 E95.67036
G1 X115.653 Y97.787 E96.35141
G1 X115.653 Y96.847 E96.42942
G1 X109.847 Y102.653 E97.11048
G1 X109.847 Y101.712 E97.18849
G1 X115.653 Y95.907 E97.86954
G1 X115.653 Y94.966 E97.94755
G1 X109.847 Y100.772 E98.62861
G1 X109.847 Y99.832 E98.70662
G1 X115.653 Y94.026 E99.38767
G1 X115.653 Y93.085 E99.46568
G1 X109.847 Y98.891 E100.14674
G1 X109.847 Y97.951 E100.22475
G1 X115.653 Y92.145 E100.90580
G1 X115.653 Y91.204 E100.98381
G1 X109.847 Y97.010 E101.66487
G1 X109.847 Y96.070 E101.74288
G1 X115.653 Y90.264 E102.42393
G1 X115.537 Y89.439 E102.49298
G1 X109.847 Y95.129 E103.16042
G1 X109.847 Y94.189 E103.23843
G1 X115.338 Y88.697 E103.88255
G1 X115.012 Y88.083 E103.94025
G1 X109.847 Y93.248 E104.54616
G1 X109.847 Y92.308 E104.62417
G1 X114.542 Y87.613 E105.17492
G1 X113.999 Y87.215 E105.23073
G1 X109.847 Y91.367 E105.71782
G1 X109.847 Y90.427 E105.79583
G1 X113.258 Y87.016 E106.19592
G1 X112.243 Y87.090 E106.28031
G1 X110.090 Y89.243 E106.53285
G1 X115.335 Y113.153 F7800.000
G1 X115.653 Y112.835 E106.57012 F1200.000
G1 X115.653 Y111.895 E106.64813
G1 X114.395 Y113.153 E106.79571
G1 X113.454 Y113.153 E106.87372
G1 X115.653 Y110.954 E107.13163
G1 X115.653 Y110.014 E107.20964
G1 X112.514 Y113.153 E107.57787
G1 X111.573 Y113.153 E107.65588
G1 X115.653 Y109.073 E108.13443
G1 X115.653 Y108.133 E108.21244
G1 X110.633 Y113.153 E108.80131
G1 X109.692 Y113.153 E108.87932
G1 X115.653 Y107.192 E109.57852
G1 X115.653 Y106.252 E109.65653
G1 X108.752 Y113.153 E110.46605
G1 X107.811 Y113.153 E110.54406
G1 X109.117 Y111.847 E110.69725
G1 X108.177 Y111.847 E110.77526
G1 X106.871 Y113.153 E110.92845
G1 X105.930 Y113.153 E111.00646
G1 X107.236 Y111.847 E111.15965
G1 X106.296 Y111.847 E111.23766
G1 X104.990 Y113.153 E111.39086
G1 X104.049 Y113.153 E111.46887
G1 X105.355 Y111.847 E111.62206
G1 X104.415 Y111.847 E111.70007
G1 X103.109 Y113.153 E111.85326
G1 X102.168 Y113.153 E111.93127
G1 X103.474 Y111.847 E112.08446
G1 X102.534 Y111.847 E112.16247
G1 X101.228 Y113.153 E112.31566
G1 X100.287 Y113.153 E112.39367
G1 X101.593 Y111.847 E112.54687
G1 X100.653 Y111.847 E112.62488
G1 X99.347 Y113.153 E112.77807
G1 X98.407 Y113.153 E112.85608
G1 X99.712 Y111.847 E113.00927
G1 X98.772 Y111.847 E113.08728
G1 X97.466 Y113.153 E113.24047
G1 X96.526 Y113.153 E113.31848
G1 X97.832 Y111.847 E113.47167
G1 X96.891 Y111.847 E113.54968
G1 X95.585 Y113.153 E113.70288
G1 X94.645 Y113.153 E113.78089
G1 X95.951 Y111.847 E113.93408
G1 X95.010 Y111.847 E114.01209
G1 X93.704 Y113.153 E114.16528
G1 X92.764 Y113.153 E114.24329
G1 X94.070 Y111.847 E114.39648
G1 X93.129 Y111.847 E114.47449
G1 X91.823 Y113.153 E114.62769
G1 X90.883 Y113.153 E114.70569
G1 X92.189 Y111.847 E114.85889
G1 X91.248 Y111.847 E114.93690
G1 X89.942 Y113.153 E115.09009
G1 X89.002 Y113.153 E115.16810
G1 X90.308 Y111.847 E115.32129
G1 X89.367 Y111.847 E115.39930
G1 X88.061 Y113.153 E115.55249
G1 X87.121 Y113.153 E115.63050
G1 X88.427 Y111.847 E115.78370
G1 X87.486 Y111.847 E115.86171
G1 X86.180 Y113.153 E116.01490
G1 X85.240 Y113.153 E116.09291
G1 X86.546 Y111.847 E116.24610
G1 X85.605 Y111.847 E116.32411
G1 X84.347 Y113.105 E116.47169
G1 X84.347 Y112.165 E116.54970
G1 X84.665 Y111.847 E116.58697
G1 Z0.950 F7800.000
G1 X109.450 Y111.450 F7800.000
G1 X109.450 Y89.941 E118.34278 F3600.000
G1 X109.936 Y88.125 E118.49621
G1 X111.125 Y86.936 E118.63351
G1 X112.750 Y86.501 E118.77082
G1 X114.375 Y86.936 E118.90812
G1 X115.564 Y88.125 E119.04542
G1 X116.050 Y89.941 E119.19886
G1 X116.050 Y113.550 E121.12617
G1 X83.950 Y113.550 E123.74665
G1 X83.950 Y111.450 E123.91815
G1 X109.375 Y111.450 E125.99366
G1 X108.795 Y110.795 F7800.000
G1 X108.795 Y89.855 E127.70308 F3600.000
G1 X109.349 Y87.787 E127.87786
G1 X110.787 Y86.349 E128.04380
G1 X112.750 Y85.823 E128.20973
G1 X114.713 Y86.349 E128.37567
G1 X116.151 Y87.787 E128.54161
G1 X116.705 Y89.855 E128.71639
G1 X116.705 Y114.205 E130.70416
G1 X83.295 Y114.205 E133.43150
G1 X83.295 Y110.795 E133.70986
G1 X108.720 Y110.795 E135.78537
G1 X108.250 Y110.250 F7800.000
G1 X108.250 Y89.783 E136.89740 F1800.000
G1 X108.861 Y87.504 E137.02557
G1 X110.504 Y85.861 E137.15188
G1 X112.750 Y85.259 E137.27820
G1 X114.996 Y85.861 E137.40451
G1 X116.639 Y87.504 E137.53082
G1 X117.250 Y89.783 E137.65899
G1 X117.250 Y114.750 E139.01552
G1 X82.750 Y114.750 E140.89000
G1 X82.750 Y110.250 E141.13450
G1 X108.175 Y110.250 E142.51592
G1 X108.750 Y110.250 F7800.000
G1 X109.847 Y111.233 F7800.000
G1 X111.767 Y113.153 E142.73978 F1200.000
G1 X112.702 Y113.153 E142.81681
G1 X109.847 Y110.298 E143.14961
G1 X109.847 Y109.363 E143.22664
G1 X113.637 Y113.153 E143.66838
G1 X114.571 Y113.153 E143.74541
G1 X109.847 Y108.429 E144.29610
G1 X109.847 Y107.494 E144.37313
G1 X115.506 Y113.153 E145.03275
G1 X115.653 Y112.366 E145.09878
G1 X109.847 Y106.560 E145.77555
G1 X109.847 Y105.625 E145.85259
G1 X115.653 Y111.431 E146.52936
G1 X115.653 Y110.496 E146.60640
G1 X109.847 Y104.690 E147.28317
G1 X109.847 Y103.756 E147.36021
G1 X115.653 Y109.562 E148.03698
G1 X115.653 Y108.627 E148.11401
G1 X109.847 Y102.821 E148.79079
G1 X109.847 Y101.887 E148.86782
G1 X115.653 Y107.693 E149.54460
G1 X115.653 Y106.758 E149.62163
G1 X109.847 Y100.952 E150.29841
G1 X109.847 Y100.018 E150.37544
G1 X115.653 Y105.824 E151.05222
G1 X115.653 Y104.889 E151.12925
G1 X109.847 Y99.083 E151.80603
G1 X109.847 Y98.148 E151.88306
G1 X115.653 Y103.954 E152.55984
G1 X115.653 Y103.020 E152.63687
G1 X109.847 Y97.214 E153.31365
G1 X109.847 Y96.279 E153.39068
G1 X115.653 Y102.085 E154.06746
G1 X115.653 Y101.151 E154.14449
G1 X109.847 Y95.345 E154.82127
G1 X109.847 Y94.410 E154.89830
G1 X115.653 Y100.216 E155.57508
G1 X115.653 Y99.281 E155.65211
G1 X109.847 Y93.475 E156.32889
G1 X109.847 Y92.541 E156.40592
G1 X115.653 Y98.347 E157.08270
G1 X115.653 Y97.412 E157.15973
G1 X109.847 Y91.606 E157.83651
G1 X109.847 Y90.672 E157.91354
G1 X115.653 Y96.478 E158.59032
G1 X115.653 Y95.543 E158.66735
G1 X109.876 Y89.766 E159.34079
G1 X110.073 Y89.029 E159.40369
G1 X115.653 Y94.609 E160.05411
G1 X115.653 Y93.674 E160.13114
G1 X110.271 Y88.292 E160.75854
G1 X110.728 Y87.814 E160.81302
G1 X115.653 Y92.739 E161.38712
G1 X115.653 Y91.805 E161.46416
G1 X111.195 Y87.347 E161.98379
G1 X111.892 Y87.110 E162.04450
G1 X115.653 Y90.870 E162.48285
G1 X115.574 Y89.857 E162.56661
G1 X112.643 Y86.926 E162.90833
G1 X113.920 Y87.268 E163.01727
G1 X115.232 Y88.580 E163.17029
G1 X109.527 Y111.847 F7800.000
G1 X110.833 Y113.153 E163.32252 F1200.000
G1 X109.898 Y113.153 E163.39955
G1 X108.592 Y111.847 E163.55178
G1 X107.658 Y111.847 E163.62882
G1 X108.964 Y113.153 E163.78105
G1 X108.029 Y113.153 E163.85808
G1 X106.723 Y111.847 E164.01031
G1 X105.789 Y111.847 E164.08734
G1 X107.095 Y113.153 E164.23957
G1 X106.160 Y113.153 E164.31661
G1 X104.854 Y111.847 E164.46884
G1 X103.919 Y111.847 E164.54587
G1 X105.225 Y113.153 E164.69810
G1 X104.291 Y113.153 E164.77513
G1 X102.985 Y111.847 E164.92736
G1 X102.050 Y111.847 E165.00439
G1 X103.356 Y113.153 E165.15662
G1 X102.422 Y113.153 E165.23366
G1 X101.116 Y111.847 E165.38589
G1 X100.181 Y111.847 E165.46292
G1 X101.487 Y113.153 E165.61515
G1 X100.553 Y113.153 E165.69218
G1 X99.247 Y111.847 E165.84441
G1 X98.312 Y111.847 E165.92145
G1 X99.618 Y113.153 E166.07368
G1 X98.683 Y113.153 E166.15071
G1 X97.377 Y111.847 E166.30294
G1 X96.443 Y111.847 E166.37997
G1 X97.749 Y113.153 E166.53220
G1 X96.814 Y113.153 E166.60923
