; generated by Slic3r 1.2.9 on 2017-10-04 at 05:57:56

; external perimeters extrusion width = 0.50mm
; perimeters extrusion width = 0.72mm
; infill extrusion width = 0.72mm
; solid infill extrusion width = 0.72mm
; top infill extrusion width = 0.72mm

M107
M104 S200 ; set temperature
G28 ; home all axes
G1 Z5 F5000 ; lift nozzle

M109 S200 ; wait for temperature to be reached
G21 ; set units to millimeters
G90 ; use absolute coordinates
M82 ; use absolute distances for extrusion
G92 E0
G1 Z0.350 F7800.000
G1 X13.820 Y55.981 F7800.000
G1 X15.000 Y55.875 E0.10771 F1800.000
G1 X185.000 Y55.875 E15.56574
G1 X187.259 Y56.272 E15.77428
G1 X189.247 Y57.415 E15.98282 F1800.000
G1 X190.726 Y59.168 E16.19136
G1 X191.519 Y61.320 E16.39991
G1 X191.625 Y62.500 E16.50762
G1 X191.625 Y137.500 E23.32733
G1 X191.228 Y139.759 E23.53588
G1 X190.085 Y141.747 E23.74442
G1 X188.332 Y143.226 E23.95296
G1 X186.180 Y144.019 E24.16150
G1 X185.000 Y144.125 E24.26921
G1 X15.000 Y144.125 E39.72724
G1 X12.741 Y143.728 E39.93578
G1 X10.753 Y142.585 E40.14433
G1 X9.274 Y140.832 E40.35287
G1 X8.481 Y138.680 E40.56141
G1 X8.375 Y137.500 E40.66912
G1 X8.375 Y62.500 E47.48884
G1 X8.772 Y60.241 E47.69738
G1 X9.915 Y58.253 E47.90592
G1 X11.668 Y56.774 E48.11447
G1 X13.750 Y56.007 E48.31619
G1 E46.31619 F2400.00000
G92 E0
G1 X47.284 Y106.144 F7800.000
G1 E2.00000 F2400.00000
G1 X45.402 Y103.328 E2.30798 F1800.000
G1 X44.665 Y99.623 E2.65146
G1 X45.402 Y95.918 E2.99494
G1 X47.501 Y92.777 E3.33841
G1 X50.641 Y90.679 E3.68189
G1 X53.854 Y90.040 E3.97977
G1 X54.346 Y89.942 E4.02537 F1800.000
G1 X58.051 Y90.679 E4.36884
G1 X61.192 Y92.777 E4.71232
G1 X63.290 Y95.918 E5.05579
G1 X64.027 Y99.623 E5.39927
G1 X63.290 Y103.328 E5.74275
G1 X61.192 Y106.469 E6.08622
G1 X58.051 Y108.567 E6.42970
G1 X54.346 Y109.304 E6.77317
G1 X50.641 Y108.567 E7.11665
G1 X47.501 Y106.469 E7.46013
G1 X47.325 Y106.206 E7.48880
G1 X47.803 Y105.797 F7800.000
G1 X45.991 Y103.084 E7.78548 F1800.000
G1 X45.302 Y99.623 E8.10635
G1 X45.991 Y96.162 E8.42722
G1 X47.951 Y93.228 E8.74809
G1 X50.885 Y91.267 E9.06897 F1800.000
G1 X53.976 Y90.653 E9.35554
G1 X54.346 Y90.579 E9.38984
G1 X57.807 Y91.267 E9.71071
G1 X60.741 Y93.228 E10.03158
G1 X62.702 Y96.162 E10.35245
G1 X63.390 Y99.623 E10.67332
G1 X62.702 Y103.084 E10.99419
G1 X60.741 Y106.018 E11.31506
G1 X57.807 Y107.979 E11.63594
G1 X54.346 Y108.667 E11.95681
G1 X50.885 Y107.979 E12.27768
G1 X47.951 Y106.018 E12.59855
G1 X47.845 Y105.859 E12.61592
G1 X48.323 Y105.450 F7800.000
G1 X46.579 Y102.840 E12.90130 F1800.000
G1 X45.939 Y99.623 E13.19957
G1 X46.579 Y96.406 E13.49783
G1 X48.402 Y93.678 E13.79610
G1 X51.129 Y91.856 E14.09437
G1 X54.098 Y91.265 E14.36964
G1 X54.346 Y91.216 E14.39263 F1800.000
G1 X57.563 Y91.856 E14.69090
G1 X60.291 Y93.678 E14.98917
G1 X62.113 Y96.406 E15.28743
G1 X62.753 Y99.623 E15.58570
G1 X62.113 Y102.840 E15.88396
G1 X60.291 Y105.568 E16.18223
G1 X57.563 Y107.390 E16.48050
G1 X54.346 Y108.030 E16.77876
G1 X51.129 Y107.390 E17.07703
G1 X48.402 Y105.568 E17.37530
G1 X48.365 Y105.512 E17.38136
G1 X47.824 Y105.482 F7800.000
G1 E15.38136 F2400.00000
G92 E0
G1 X57.100 Y72.600 F7800.000
G1 E2.00000 F2400.00000
G1 X37.900 Y72.600 E3.74581 F1800.000
G1 X37.900 Y65.900 E4.35500
G1 X57.100 Y65.900 E6.10080
G1 X57.100 Y72.525 E6.70317
G1 X56.475 Y71.975 F7800.000
G1 X38.525 Y71.975 E8.33534 F1800.000
G1 X38.525 Y66.525 E8.83088
G1 X56.475 Y66.525 E10.46305
G1 X56.475 Y71.900 E10.95177
G1 X55.850 Y71.350 F7800.000
G1 X39.150 Y71.350 E12.47030 F1800.000
G1 X39.150 Y67.150 E12.85220
G1 X55.850 Y67.150 E14.37073
G1 X55.850 Y71.275 E14.74581
G1 X55.850 Y71.850 F7800.000
G1 X90.400 Y72.600 F7800.000
G1 X90.400 Y65.900 E15.35500 F1800.000
G1 X109.600 Y65.900 E17.10081
G1 X109.600 Y72.600 E17.70999
G1 X90.475 Y72.600 E19.44898
G1 X91.025 Y71.975 F7800.000
G1 X91.025 Y66.525 E19.94453 F1800.000
G1 X108.975 Y66.525 E21.57669
G1 X108.975 Y71.975 E22.07224
G1 X91.100 Y71.975 E23.69759
G1 X91.650 Y71.350 F7800.000
G1 X91.650 Y67.150 E24.07949 F1800.000
G1 X108.350 Y67.150 E25.59801
G1 X108.350 Y71.350 E25.97992
G1 X91.725 Y71.350 E27.49162
G1 X91.150 Y71.350 F7800.000
G1 X97.714 Y86.981 F7800.000
G1 X99.159 Y86.594 E27.62766 F1800.000
G1 X100.841 Y86.594 E27.78065 F1800.000
G1 X102.286 Y86.981 E27.91669
G1 X103.803 Y87.711 E28.06973
G1 X104.861 Y88.770 E28.20586
G1 X105.912 Y90.087 E28.35906
G1 X106.300 Y91.535 E28.49539
G1 X106.668 Y93.150 E28.64599
G1 X106.300 Y94.765 E28.79659
G1 X105.912 Y96.213 E28.93291
G1 X104.861 Y97.530 E29.08612
G1 X103.803 Y98.589 E29.22225
G1 X102.286 Y99.319 E29.37529
G1 X100.841 Y99.706 E29.51133
G1 X99.159 Y99.706 E29.66431
G1 X97.714 Y99.319 E29.80036
G1 X96.197 Y98.589 E29.95339
G1 X95.139 Y97.530 E30.08953
G1 X94.088 Y96.213 E30.24273
G1 X93.700 Y94.765 E30.37906
G1 X93.332 Y93.150 E30.52966
G1 X93.700 Y91.535 E30.68026
G1 X94.088 Y90.087 E30.81658
G1 X95.139 Y88.770 E30.96978
G1 X96.197 Y87.711 E31.10592
G1 X97.646 Y87.014 E31.25214
G1 X97.932 Y87.569 F7800.000
G1 X99.241 Y87.219 E31.37537 F1800.000
G1 X100.759 Y87.219 E31.51339 F1800.000
G1 X102.068 Y87.569 E31.63663
G1 X103.436 Y88.228 E31.77468
G1 X104.395 Y89.187 E31.89797
G1 X105.342 Y90.375 E32.03612
G1 X105.693 Y91.686 E32.15953
G1 X106.027 Y93.150 E32.29610
G1 X105.693 Y94.614 E32.43267
G1 X105.342 Y95.925 E32.55608
G1 X104.395 Y97.113 E32.69423
G1 X103.436 Y98.072 E32.81752
G1 X102.068 Y98.731 E32.95557
G1 X100.759 Y99.081 E33.07881
G1 X99.241 Y99.081 E33.21683
G1 X97.932 Y98.731 E33.34006
G1 X96.564 Y98.072 E33.47812
G1 X95.605 Y97.113 E33.60141
G1 X94.658 Y95.925 E33.73956
G1 X94.307 Y94.614 E33.86297
G1 X93.973 Y93.150 E33.99954
G1 X94.307 Y91.686 E34.13611
G1 X94.658 Y90.375 E34.25951
G1 X95.605 Y89.187 E34.39767
G1 X96.564 Y88.228 E34.52096
G1 X97.864 Y87.602 E34.65219
G1 X98.150 Y88.158 F7800.000
G1 X99.323 Y87.844 E34.76262 F1800.000
G1 X100.677 Y87.844 E34.88568 F1800.000
G1 X101.850 Y88.158 E34.99610
G1 X103.069 Y88.745 E35.11918
G1 X103.928 Y89.604 E35.22962
G1 X104.772 Y90.662 E35.35273
G1 X105.087 Y91.836 E35.46322
G1 X105.387 Y93.150 E35.58575
G1 X105.087 Y94.464 E35.70829
G1 X104.772 Y95.638 E35.81878
G1 X103.928 Y96.696 E35.94189
G1 X103.069 Y97.555 E36.05233
G1 X101.850 Y98.142 E36.17540
G1 X100.677 Y98.456 E36.28583
G1 X99.323 Y98.456 E36.40889
G1 X98.150 Y98.142 E36.51932
G1 X96.931 Y97.555 E36.64239
G1 X96.072 Y96.696 E36.75283
G1 X95.228 Y95.638 E36.87594
G1 X94.913 Y94.464 E36.98643
G1 X94.613 Y93.150 E37.10897
G1 X94.913 Y91.836 E37.23150
G1 X95.228 Y90.662 E37.34199
G1 X96.072 Y89.604 E37.46510
G1 X96.931 Y88.745 E37.57554
G1 X98.083 Y88.190 E37.69180
G1 X98.249 Y87.668 F7800.000
G1 X142.900 Y72.600 F7800.000
G1 X142.900 Y65.900 E38.30098 F1800.000
G1 X162.100 Y65.900 E40.04679
G1 X162.100 Y72.600 E40.65598
G1 X142.975 Y72.600 E42.39497
G1 X143.525 Y71.975 F7800.000
G1 X143.525 Y66.525 E42.89051 F1800.000
G1 X161.475 Y66.525 E44.52268
G1 X161.475 Y71.975 E45.01822
G1 X143.600 Y71.975 E46.64357
G1 X144.150 Y71.350 F7800.000
G1 X144.150 Y67.150 E47.02547 F1800.000
G1 X160.850 Y67.150 E48.54400
G1 X160.850 Y71.350 E48.92590
G1 X144.225 Y71.350 E50.43761
G1 X143.650 Y71.350 F7800.000
G1 E48.43761 F2400.00000
G92 E0
G1 X183.400 Y64.100 F7800.000
G1 E2.00000 F2400.00000
G1 X183.400 Y135.900 E8.52878 F1800.000
G1 X16.600 Y135.900 E23.69588
G1 X16.600 Y64.100 E30.22466
G1 X183.325 Y64.100 E45.38494
G1 X184.025 Y63.475 F7800.000
G1 X184.025 Y136.525 E52.02736 F1800.000
G1 X15.975 Y136.525 E67.30810
G1 X15.975 Y63.475 E73.95052
G1 X183.950 Y63.475 E89.22444
G1 X184.650 Y62.850 F7800.000
G1 X184.650 Y137.150 E95.98051 F1800.000
G1 X15.350 Y137.150 E111.37489
G1 X15.350 Y62.850 E118.13095
G1 X184.575 Y62.850 E133.51851
G1 X184.400 Y63.283 F7800.000
G1 X183.022 Y64.783 F7800.000
G1 X182.717 Y64.478 E133.55784 F1800.000
G1 X181.831 Y64.478 E133.63855
G1 X183.022 Y65.669 E133.79202
G1 X183.022 Y66.555 E133.87273
G1 X180.945 Y64.478 E134.14034
G1 X180.059 Y64.478 E134.22105
G1 X183.022 Y67.441 E134.60281
G1 X183.022 Y68.326 E134.68352
G1 X179.174 Y64.478 E135.17942
G1 X178.288 Y64.478 E135.26014
G1 X183.022 Y69.212 E135.87018
G1 X183.022 Y70.098 E135.95089
G1 X177.402 Y64.478 E136.67509
G1 X176.517 Y64.478 E136.75580
G1 X183.022 Y70.983 E137.59413
G1 X183.022 Y71.869 E137.67485
G1 X175.631 Y64.478 E138.62733
G1 X174.745 Y64.478 E138.70804
G1 X183.022 Y72.755 E139.77466
G1 X183.022 Y73.640 E139.85538
G1 X173.860 Y64.478 E141.03614
G1 X172.974 Y64.478 E141.11686
G1 X183.022 Y74.526 E142.41177
G1 X183.022 Y75.412 E142.49248
G1 X172.088 Y64.478 E143.90154
G1 X171.203 Y64.478 E143.98225
G1 X183.022 Y76.297 E145.50546
G1 X183.022 Y77.183 E145.58617
G1 X170.317 Y64.478 E147.22352
G1 X169.431 Y64.478 E147.30423
G1 X183.022 Y78.069 E149.05572
G1 X183.022 Y78.954 E149.13643
G1 X168.546 Y64.478 E151.00207
G1 X167.660 Y64.478 E151.08278
G1 X183.022 Y79.840 E153.06256
G1 X183.022 Y80.726 E153.14328
G1 X166.774 Y64.478 E155.23720
G1 X165.889 Y64.478 E155.31792
G1 X183.022 Y81.611 E157.52599
G1 X183.022 Y82.497 E157.60670
G1 X165.003 Y64.478 E159.92891
G1 X164.117 Y64.478 E160.00963
G1 X183.022 Y83.383 E162.44599
G1 X183.022 Y84.268 E162.52670
G1 X163.232 Y64.478 E165.07720
G1 X162.346 Y64.478 E165.15792
G1 X183.022 Y85.154 E167.82257
G1 X183.022 Y86.040 E167.90328
G1 X161.460 Y64.478 E170.68207
G1 X160.575 Y64.478 E170.76278
G1 X161.618 Y65.522 E170.89724
G1 X160.732 Y65.522 E170.97795
G1 X159.689 Y64.478 E171.11241
G1 X158.803 Y64.478 E171.19312
G1 X159.846 Y65.522 E171.32758
G1 X158.961 Y65.522 E171.40829
G1 X157.917 Y64.478 E171.54275
G1 X157.032 Y64.478 E171.62346
G1 X158.075 Y65.522 E171.75792
G1 X157.189 Y65.522 E171.83863
G1 X156.146 Y64.478 E171.97309
G1 X155.260 Y64.478 E172.05380
G1 X156.304 Y65.522 E172.18826
G1 X155.418 Y65.522 E172.26897
G1 X154.375 Y64.478 E172.40343
G1 X153.489 Y64.478 E172.48414
G1 X154.532 Y65.522 E172.61860
G1 X153.647 Y65.522 E172.69931
G1 X152.603 Y64.478 E172.83377
G1 X151.718 Y64.478 E172.91448
G1 X152.761 Y65.522 E173.04894
G1 X151.875 Y65.522 E173.12965
G1 X150.832 Y64.478 E173.26411
G1 X149.946 Y64.478 E173.34482
G1 X150.990 Y65.522 E173.47928
G1 X150.104 Y65.522 E173.55999
G1 X149.061 Y64.478 E173.69445
G1 X148.175 Y64.478 E173.77516
G1 X149.218 Y65.522 E173.90962
G1 X148.333 Y65.522 E173.99033
G1 X147.289 Y64.478 E174.12479
G1 X146.404 Y64.478 E174.20550
G1 X147.447 Y65.522 E174.33996
G1 X146.561 Y65.522 E174.42067
G1 X145.518 Y64.478 E174.55512
G1 X144.632 Y64.478 E174.63584
G1 X145.676 Y65.522 E174.77029
G1 X144.790 Y65.522 E174.85101
G1 X143.747 Y64.478 E174.98546
G1 X142.861 Y64.478 E175.06618
G1 X143.904 Y65.522 E175.20063
G1 X143.019 Y65.522 E175.28135
G1 X141.975 Y64.478 E175.41580
G1 X141.090 Y64.478 E175.49652
G1 X142.522 Y65.910 E175.68108
G1 X142.522 Y66.796 E175.76179
G1 X140.204 Y64.478 E176.06050
G1 X139.318 Y64.478 E176.14121
G1 X142.522 Y67.682 E176.55406
G1 X142.522 Y68.567 E176.63477
G1 X138.433 Y64.478 E177.16177
G1 X137.547 Y64.478 E177.24248
G1 X142.522 Y69.453 E177.88362
G1 X142.522 Y70.339 E177.96433
G1 X136.661 Y64.478 E178.71962
G1 X135.775 Y64.478 E178.80033
G1 X142.522 Y71.224 E179.66976
G1 X142.522 Y72.110 E179.75047
G1 X134.890 Y64.478 E180.73405
G1 X134.004 Y64.478 E180.81476
G1 X183.022 Y113.496 E187.13203
G1 X183.022 Y112.610 E187.21275
G1 X143.390 Y72.978 E192.32042
G1 X144.275 Y72.978 E192.40113
G1 X183.022 Y111.724 E197.39465
G1 X183.022 Y110.839 E197.47537
G1 X145.161 Y72.978 E202.35475
G1 X146.047 Y72.978 E202.43546
G1 X183.022 Y109.953 E207.20069
G1 X183.022 Y109.067 E207.28141
G1 X146.933 Y72.978 E211.93250
G1 X147.818 Y72.978 E212.01321
G1 X183.022 Y108.182 E216.55016
G1 X183.022 Y107.296 E216.63087
G1 X148.704 Y72.978 E221.05367
G1 X149.590 Y72.978 E221.13438
G1 X183.022 Y106.410 E225.44304
G1 X183.022 Y105.525 E225.52375
G1 X150.475 Y72.978 E229.71826
G1 X151.361 Y72.978 E229.79898
G1 X183.022 Y104.639 E233.87935
G1 X183.022 Y103.753 E233.96006
G1 X152.247 Y72.978 E237.92628
G1 X153.132 Y72.978 E238.00699
G1 X183.022 Y102.868 E241.85907
G1 X183.022 Y101.982 E241.93978
G1 X154.018 Y72.978 E245.67772
G1 X154.904 Y72.978 E245.75843
G1 X183.022 Y101.096 E249.38222
G1 X183.022 Y100.211 E249.46293
G1 X155.789 Y72.978 E252.97258
G1 X156.675 Y72.978 E253.05329
G1 X183.022 Y99.325 E256.44879
G1 X183.022 Y98.439 E256.52950
G1 X157.561 Y72.978 E259.81086
G1 X158.446 Y72.978 E259.89157
G1 X183.022 Y97.554 E263.05878
G1 X183.022 Y96.668 E263.13949
G1 X159.332 Y72.978 E266.19256
G1 X160.218 Y72.978 E266.27327
G1 X183.022 Y95.782 E269.21219
G1 X183.022 Y94.897 E269.29291
G1 X161.103 Y72.978 E272.11768
G1 X161.989 Y72.978 E272.19840
G1 X183.022 Y94.011 E274.90903
G1 X183.022 Y93.125 E274.98974
G1 X162.478 Y72.582 E277.63732
G1 X162.478 Y71.696 E277.71803
G1 X183.022 Y92.240 E280.36561
G1 X183.022 Y91.354 E280.44632
G1 X162.478 Y70.811 E283.09390
G1 X162.478 Y69.925 E283.17461
G1 X183.022 Y90.468 E285.82219
G1 X183.022 Y89.583 E285.90290
G1 X162.478 Y69.039 E288.55048
G1 X162.478 Y68.154 E288.63119
G1 X183.022 Y88.697 E291.27877
G1 X183.022 Y87.811 E291.35948
G1 X162.478 Y67.268 E294.00706
G1 X162.478 Y66.382 E294.08777
G1 X183.022 Y86.925 E296.73535
G1 X183.022 Y114.382 F7800.000
G1 X133.118 Y64.478 E303.16677 F1800.000
G1 X132.233 Y64.478 E303.24748
G1 X183.022 Y115.267 E309.79305
G1 X183.022 Y116.153 E309.87376
G1 X131.347 Y64.478 E316.53347
G1 X130.461 Y64.478 E316.61419
G1 X183.022 Y117.039 E323.38804
G1 X183.022 Y117.924 E323.46875
G1 X129.576 Y64.478 E330.35675
G1 X128.690 Y64.478 E330.43747
G1 X183.022 Y118.810 E337.43961
G1 X183.022 Y119.696 E337.52032
G1 X127.804 Y64.478 E344.63661
G1 X126.919 Y64.478 E344.71732
G1 X183.022 Y120.581 E351.94776
G1 X183.022 Y121.467 E352.02847
G1 X126.033 Y64.478 E359.37305
G1 X125.147 Y64.478 E359.45376
G1 X183.022 Y122.353 E366.91248
G1 X183.022 Y123.238 E366.99320
G1 X124.262 Y64.478 E374.56606
G1 X123.376 Y64.478 E374.64678
G1 X183.022 Y124.124 E382.33379
G1 X183.022 Y125.010 E382.41450
G1 X122.490 Y64.478 E390.21566
G1 X121.605 Y64.478 E390.29637
G1 X183.022 Y125.895 E398.21167
G1 X183.022 Y126.781 E398.29238
G1 X120.719 Y64.478 E406.32183
G1 X119.833 Y64.478 E406.40254
G1 X183.022 Y127.667 E414.54613
G1 X183.022 Y128.552 E414.62684
G1 X118.948 Y64.478 E422.88458
G1 X118.062 Y64.478 E422.96529
G1 X183.022 Y129.438 E431.33717
G1 X183.022 Y130.324 E431.41788
G1 X117.176 Y64.478 E439.90391
G1 X116.291 Y64.478 E439.98462
G1 X183.022 Y131.209 E448.58479
G1 X183.022 Y132.095 E448.66550
G1 X115.405 Y64.478 E457.37981
G1 X114.519 Y64.478 E457.46053
G1 X183.022 Y132.981 E466.28899
G1 X183.022 Y133.866 E466.36970
G1 X113.634 Y64.478 E475.31230
G1 X112.748 Y64.478 E475.39301
G1 X183.022 Y134.752 E484.44976
G1 X182.905 Y135.522 E484.52068
G1 X111.862 Y64.478 E493.67659
G1 X110.976 Y64.478 E493.75731
G1 X182.020 Y135.522 E502.91322
G1 X181.134 Y135.522 E502.99393
G1 X110.091 Y64.478 E512.14985
G1 X109.205 Y64.478 E512.23056
G1 X180.248 Y135.522 E521.38648
G1 X179.363 Y135.522 E521.46719
G1 X109.978 Y66.137 E530.40931
G1 X109.363 Y65.522 F7800.000
G1 X108.319 Y64.478 E530.54376 F1800.000
G1 X107.434 Y64.478 E530.62448
G1 X108.477 Y65.522 E530.75893
G1 X107.591 Y65.522 E530.83965
G1 X106.548 Y64.478 E530.97410
G1 X105.662 Y64.478 E531.05482
G1 X106.706 Y65.522 E531.18927
G1 X105.820 Y65.522 E531.26999
G1 X104.777 Y64.478 E531.40444
G1 X103.891 Y64.478 E531.48516
G1 X104.934 Y65.522 E531.61961
G1 X104.049 Y65.522 E531.70033
G1 X103.005 Y64.478 E531.83478
G1 X102.120 Y64.478 E531.91549
G1 X103.163 Y65.522 E532.04995
G1 X102.277 Y65.522 E532.13066
G1 X101.234 Y64.478 E532.26512
G1 X100.348 Y64.478 E532.34583
